DEF  My_Job ( )
INT cmd_CambioZona
INT CMD_INICIO
cmd_CambioZona = 0
CMD_INICIO = 0

;FOLD INI
CONTINUE
IF NOT $ON_PATH THEN
  ;FOLD BASISTECH INI
    GLOBAL INTERRUPT DECL 3 WHEN $STOPMESS==TRUE DO IR_STOPM ( )
    INTERRUPT ON 3 
    BAS (#INITMOV,0 )
  ;ENDFOLD (BASISTECH INI)
  ;FOLD USER INI
    ;Make your modifications here

  ;ENDFOLD (USER INI)
ENDIF
;ENDFOLD (INI)

;FOLD CHECK DAT-FILE GENERATION NUMBER
  IF APP_GENNUMBER <> 1682703 THEN
    LOOP
      MsgQuit("InconsistenceSRCandDAT",,,,1)
      HALT
    ENDLOOP
  ENDIF
;ENDFOLD


;fold Jobinfo
;Job information: My_Job
;Product : 3.1.0.28172
;Date: 2020-09-11-15_20
;Project name: My_Project
;Author: My Author
;Company: My Company
;Division: My Division
;Comment: My Comment
;endfold

;fold Cellmap
; 000-809 - ENSAMBLAJE GENERAL - LAVADO DE CAMIONES
; KL1500-3
; Robot01
; Typ_A_R3700
; Hta Lavado
; Soporte Riel
; Camion
; 930E (1)
; komatsu 930
;endfold
;fold Axes definitions
; Axis1 [-185 185] Rot [deg] (Robot01 : A1)
; Axis2 [-120 70] Rot [deg] (Robot01 : A2)
; Axis3 [-120 155] Rot [deg] (Robot01 : A3)
; Axis4 [-350 350] Rot [deg] (Robot01 : A4)
; Axis5 [-125 125] Rot [deg] (Robot01 : A5)
; Axis6 [-350 350] Rot [deg] (Robot01 : A6)
; Axis7 [-16639.992 445] Trans [mm] (KL1500-3 : E1)
;endfold
;fold RobRoot, Tools and Bases used
; $ROBROOT = {x 0,y 0,z 0,a 0,b 0,c 0}
; BASE_DATA[1] = {x 12049.545,y -2217.952,z 994.883,a -180,b 0,c 0}
; TOOL_DATA[1] = {x -490,y 50.002,z 494.7,a -90,b 0,c -0.4803}
; TOOL_DATA[2] = {x 199.7,y 50,z 155,a 90,b 0,c 90}
; TOOL_DATA[9] = {x -490,y 50.002,z 1994.7,a -89.97204,b 0,c 0}
; TOOL_DATA[10] = {x -490,y 50.002,z 2494.7,a -90,b 0,c 0}
; TOOL_DATA[11] = {x -490,y 50.002,z 4194.7,a -91.58138,b 0,c 0}
; TOOL_DATA[12] = {x -490,y 50.002,z 3494.7,a -91.59939,b 0,c 0}
; TOOL_DATA[13] = {x 1199.7,y 49.97,z 155.003,a 89.99827,b -0.60338,c 89.99981}
; TOOL_DATA[14] = {x 2699.7,y 49.924,z 155.008,a 89.99827,b -0.60815,c 89.99981}
;endfold
;fold HomePositions
;endfold
CMD_INICIO = 0
Zone01_FrontChassis()
Zone02_MudGuard()
Zone03_FrontWheel()
Zone04_MidChassis()
Zone05_Cylinder()
Zone06_BackWheel()
Zone07_LowTruckBed()
Zone08_HighTruckBed()
Zone09_BackChassis()
;FOLD WAIT Time=100 sec;%{PE}%R 8.5.16,%MKUKATPBASIS,%CWAIT,%VWAIT,%P 3:100
WAIT SEC 100
;ENDFOLD
END


DEF Zone01_FrontChassis()

;FOLD PTP P1 CONT Vel= 100 % PDATP1 Tool[0] Base[0]   ;%{PE}
;FOLD Parameters ;%{h}
;Params IlfProvider=kukaroboter.basistech.inlineforms.movement.old; Kuka.IsGlobalPoint=False; Kuka.PointName=P1; Kuka.BlendingEnabled=True; Kuka.MoveDataPtpName=PDATP1; Kuka.VelocityPtp=100; Kuka.CurrentCDSetIndex=0; Kuka.MovementParameterFieldEnabled=True; IlfCommand=PTP
;ENDFOLD
$BWDSTART = FALSE
PDAT_ACT=PPDATP1
FDAT_ACT=FP1
BAS (#PTP_PARAMS,100)
SET_CD_PARAMS (0)
PTP XP1 C_DIS
;ENDFOLD
;FOLD PTP P2 CONT Vel= 100 % PDATP2 Tool[0] Base[0]   ;%{PE}
;FOLD Parameters ;%{h}
;Params IlfProvider=kukaroboter.basistech.inlineforms.movement.old; Kuka.IsGlobalPoint=False; Kuka.PointName=P2; Kuka.BlendingEnabled=True; Kuka.MoveDataPtpName=PDATP2; Kuka.VelocityPtp=100; Kuka.CurrentCDSetIndex=0; Kuka.MovementParameterFieldEnabled=True; IlfCommand=PTP
;ENDFOLD
$BWDSTART = FALSE
PDAT_ACT=PPDATP2
FDAT_ACT=FP2
BAS (#PTP_PARAMS,100)
SET_CD_PARAMS (0)
PTP XP2 C_DIS
;ENDFOLD
;FOLD PTP Zone01_Entry CONT Vel= 100 % PDATP3 Tool[0] Base[1]   ;%{PE}
;FOLD Parameters ;%{h}
;Params IlfProvider=kukaroboter.basistech.inlineforms.movement.old; Kuka.IsGlobalPoint=False; Kuka.PointName=Zone01_Entry; Kuka.BlendingEnabled=True; Kuka.MoveDataPtpName=PDATP3; Kuka.VelocityPtp=100; Kuka.CurrentCDSetIndex=0; Kuka.MovementParameterFieldEnabled=True; IlfCommand=PTP
;ENDFOLD
$BWDSTART = FALSE
PDAT_ACT=PPDATP3
FDAT_ACT=FZone01_Entry
BAS (#PTP_PARAMS,100)
SET_CD_PARAMS (0)
PTP XZone01_Entry C_DIS
;ENDFOLD

;FOLD Platform_Front
Zone_01_01()
;FOLD PTP Zone01_Entry1 CONT Vel= 100 % PDATP3 Tool[12] Base[1]   ;%{PE}
;FOLD Parameters ;%{h}
;Params IlfProvider=kukaroboter.basistech.inlineforms.movement.old; Kuka.IsGlobalPoint=False; Kuka.PointName=Zone01_Entry1; Kuka.BlendingEnabled=True; Kuka.MoveDataPtpName=PDATP3; Kuka.VelocityPtp=100; Kuka.CurrentCDSetIndex=0; Kuka.MovementParameterFieldEnabled=True; IlfCommand=PTP
;ENDFOLD
$BWDSTART = FALSE
PDAT_ACT=PPDATP3
FDAT_ACT=FZone01_Entry1
BAS (#PTP_PARAMS,100)
SET_CD_PARAMS (0)
PTP XZone01_Entry1 C_DIS
;ENDFOLD
;ENDFOLD Platform_Front


;FOLD HeatSpreader
Zone_01_02()
;FOLD PTP Zone01_Entry2 CONT Vel= 100 % PDATP3 Tool[12] Base[1]   ;%{PE}
;FOLD Parameters ;%{h}
;Params IlfProvider=kukaroboter.basistech.inlineforms.movement.old; Kuka.IsGlobalPoint=False; Kuka.PointName=Zone01_Entry2; Kuka.BlendingEnabled=True; Kuka.MoveDataPtpName=PDATP3; Kuka.VelocityPtp=100; Kuka.CurrentCDSetIndex=0; Kuka.MovementParameterFieldEnabled=True; IlfCommand=PTP
;ENDFOLD
$BWDSTART = FALSE
PDAT_ACT=PPDATP3
FDAT_ACT=FZone01_Entry2
BAS (#PTP_PARAMS,100)
SET_CD_PARAMS (0)
PTP XZone01_Entry2 C_DIS
;ENDFOLD
;ENDFOLD HeatSpreader


;FOLD HeatSpreader_Side
Zone_01_03()
;FOLD PTP Zone01_Entry3 CONT Vel= 100 % PDATP3 Tool[12] Base[1]   ;%{PE}
;FOLD Parameters ;%{h}
;Params IlfProvider=kukaroboter.basistech.inlineforms.movement.old; Kuka.IsGlobalPoint=False; Kuka.PointName=Zone01_Entry3; Kuka.BlendingEnabled=True; Kuka.MoveDataPtpName=PDATP3; Kuka.VelocityPtp=100; Kuka.CurrentCDSetIndex=0; Kuka.MovementParameterFieldEnabled=True; IlfCommand=PTP
;ENDFOLD
$BWDSTART = FALSE
PDAT_ACT=PPDATP3
FDAT_ACT=FZone01_Entry3
BAS (#PTP_PARAMS,100)
SET_CD_PARAMS (0)
PTP XZone01_Entry3 C_DIS
;ENDFOLD
;ENDFOLD HeatSpreader_Side


;FOLD MudGuard_Front
Zone_01_04()
;FOLD PTP Zone01_Entry4 CONT Vel= 100 % PDATP3 Tool[12] Base[1]   ;%{PE}
;FOLD Parameters ;%{h}
;Params IlfProvider=kukaroboter.basistech.inlineforms.movement.old; Kuka.IsGlobalPoint=False; Kuka.PointName=Zone01_Entry4; Kuka.BlendingEnabled=True; Kuka.MoveDataPtpName=PDATP3; Kuka.VelocityPtp=100; Kuka.CurrentCDSetIndex=0; Kuka.MovementParameterFieldEnabled=True; IlfCommand=PTP
;ENDFOLD
$BWDSTART = FALSE
PDAT_ACT=PPDATP3
FDAT_ACT=FZone01_Entry4
BAS (#PTP_PARAMS,100)
SET_CD_PARAMS (0)
PTP XZone01_Entry4 C_DIS
;ENDFOLD
;ENDFOLD MudGuard_Front


;FOLD Bumper_Front
Zone_01_05()
;FOLD PTP Zone01_Entry5 CONT Vel= 100 % PDATP3 Tool[12] Base[1]   ;%{PE}
;FOLD Parameters ;%{h}
;Params IlfProvider=kukaroboter.basistech.inlineforms.movement.old; Kuka.IsGlobalPoint=False; Kuka.PointName=Zone01_Entry5; Kuka.BlendingEnabled=True; Kuka.MoveDataPtpName=PDATP3; Kuka.VelocityPtp=100; Kuka.CurrentCDSetIndex=0; Kuka.MovementParameterFieldEnabled=True; IlfCommand=PTP
;ENDFOLD
$BWDSTART = FALSE
PDAT_ACT=PPDATP3
FDAT_ACT=FZone01_Entry5
BAS (#PTP_PARAMS,100)
SET_CD_PARAMS (0)
PTP XZone01_Entry5 C_DIS
;ENDFOLD
;ENDFOLD Bumper_Front


;FOLD Bumper_Belows
Zone_01_06()
;FOLD PTP Zone01_Entry6 CONT Vel= 100 % PDATP3 Tool[12] Base[1]   ;%{PE}
;FOLD Parameters ;%{h}
;Params IlfProvider=kukaroboter.basistech.inlineforms.movement.old; Kuka.IsGlobalPoint=False; Kuka.PointName=Zone01_Entry6; Kuka.BlendingEnabled=True; Kuka.MoveDataPtpName=PDATP3; Kuka.VelocityPtp=100; Kuka.CurrentCDSetIndex=0; Kuka.MovementParameterFieldEnabled=True; IlfCommand=PTP
;ENDFOLD
$BWDSTART = FALSE
PDAT_ACT=PPDATP3
FDAT_ACT=FZone01_Entry6
BAS (#PTP_PARAMS,100)
SET_CD_PARAMS (0)
PTP XZone01_Entry6 C_DIS
;ENDFOLD
;ENDFOLD Bumper_Belows


;FOLD Bumper_Side
Zone_01_07()
;FOLD PTP Zone01_Entry7 CONT Vel= 100 % PDATP3 Tool[12] Base[1]   ;%{PE}
;FOLD Parameters ;%{h}
;Params IlfProvider=kukaroboter.basistech.inlineforms.movement.old; Kuka.IsGlobalPoint=False; Kuka.PointName=Zone01_Entry7; Kuka.BlendingEnabled=True; Kuka.MoveDataPtpName=PDATP3; Kuka.VelocityPtp=100; Kuka.CurrentCDSetIndex=0; Kuka.MovementParameterFieldEnabled=True; IlfCommand=PTP
;ENDFOLD
$BWDSTART = FALSE
PDAT_ACT=PPDATP3
FDAT_ACT=FZone01_Entry7
BAS (#PTP_PARAMS,100)
SET_CD_PARAMS (0)
PTP XZone01_Entry7 C_DIS
;ENDFOLD
;ENDFOLD Bumper_Side

;FOLD PTP Zone01_Entry8 CONT Vel= 100 % PDATP3 Tool[0] Base[1]   ;%{PE}
;FOLD Parameters ;%{h}
;Params IlfProvider=kukaroboter.basistech.inlineforms.movement.old; Kuka.IsGlobalPoint=False; Kuka.PointName=Zone01_Entry8; Kuka.BlendingEnabled=True; Kuka.MoveDataPtpName=PDATP3; Kuka.VelocityPtp=100; Kuka.CurrentCDSetIndex=0; Kuka.MovementParameterFieldEnabled=True; IlfCommand=PTP
;ENDFOLD
$BWDSTART = FALSE
PDAT_ACT=PPDATP3
FDAT_ACT=FZone01_Entry8
BAS (#PTP_PARAMS,100)
SET_CD_PARAMS (0)
PTP XZone01_Entry8 C_DIS
;ENDFOLD
;FOLD PTP P93 CONT Vel= 100 % PDATP2 Tool[0] Base[0]   ;%{PE}
;FOLD Parameters ;%{h}
;Params IlfProvider=kukaroboter.basistech.inlineforms.movement.old; Kuka.IsGlobalPoint=False; Kuka.PointName=P93; Kuka.BlendingEnabled=True; Kuka.MoveDataPtpName=PDATP2; Kuka.VelocityPtp=100; Kuka.CurrentCDSetIndex=0; Kuka.MovementParameterFieldEnabled=True; IlfCommand=PTP
;ENDFOLD
$BWDSTART = FALSE
PDAT_ACT=PPDATP2
FDAT_ACT=FP93
BAS (#PTP_PARAMS,100)
SET_CD_PARAMS (0)
PTP XP93 C_DIS
;ENDFOLD
;FOLD PTP P92 CONT Vel= 100 % PDATP1 Tool[0] Base[0]   ;%{PE}
;FOLD Parameters ;%{h}
;Params IlfProvider=kukaroboter.basistech.inlineforms.movement.old; Kuka.IsGlobalPoint=False; Kuka.PointName=P92; Kuka.BlendingEnabled=True; Kuka.MoveDataPtpName=PDATP1; Kuka.VelocityPtp=100; Kuka.CurrentCDSetIndex=0; Kuka.MovementParameterFieldEnabled=True; IlfCommand=PTP
;ENDFOLD
$BWDSTART = FALSE
PDAT_ACT=PPDATP1
FDAT_ACT=FP92
BAS (#PTP_PARAMS,100)
SET_CD_PARAMS (0)
PTP XP92 C_DIS
;ENDFOLD
END


DEF Zone02_MudGuard()

;FOLD PTP Zone02_Entry CONT Vel= 100 % PDATP4 Tool[0] Base[1]   ;%{PE}
;FOLD Parameters ;%{h}
;Params IlfProvider=kukaroboter.basistech.inlineforms.movement.old; Kuka.IsGlobalPoint=False; Kuka.PointName=Zone02_Entry; Kuka.BlendingEnabled=True; Kuka.MoveDataPtpName=PDATP4; Kuka.VelocityPtp=100; Kuka.CurrentCDSetIndex=0; Kuka.MovementParameterFieldEnabled=True; IlfCommand=PTP
;ENDFOLD
$BWDSTART = FALSE
PDAT_ACT=PPDATP4
FDAT_ACT=FZone02_Entry
BAS (#PTP_PARAMS,100)
SET_CD_PARAMS (0)
PTP XZone02_Entry C_DIS
;ENDFOLD

;FOLD Platform_Front
Zone_02_01()
;FOLD PTP Zone02_Entry1 CONT Vel= 100 % PDATP4 Tool[0] Base[1]   ;%{PE}
;FOLD Parameters ;%{h}
;Params IlfProvider=kukaroboter.basistech.inlineforms.movement.old; Kuka.IsGlobalPoint=False; Kuka.PointName=Zone02_Entry1; Kuka.BlendingEnabled=True; Kuka.MoveDataPtpName=PDATP4; Kuka.VelocityPtp=100; Kuka.CurrentCDSetIndex=0; Kuka.MovementParameterFieldEnabled=True; IlfCommand=PTP
;ENDFOLD
$BWDSTART = FALSE
PDAT_ACT=PPDATP4
FDAT_ACT=FZone02_Entry1
BAS (#PTP_PARAMS,100)
SET_CD_PARAMS (0)
PTP XZone02_Entry1 C_DIS
;ENDFOLD
;ENDFOLD Platform_Front


;FOLD Platform_Below
Zone_02_02()
;FOLD PTP Zone02_Entry2 CONT Vel= 100 % PDATP4 Tool[0] Base[1]   ;%{PE}
;FOLD Parameters ;%{h}
;Params IlfProvider=kukaroboter.basistech.inlineforms.movement.old; Kuka.IsGlobalPoint=False; Kuka.PointName=Zone02_Entry2; Kuka.BlendingEnabled=True; Kuka.MoveDataPtpName=PDATP4; Kuka.VelocityPtp=100; Kuka.CurrentCDSetIndex=0; Kuka.MovementParameterFieldEnabled=True; IlfCommand=PTP
;ENDFOLD
$BWDSTART = FALSE
PDAT_ACT=PPDATP4
FDAT_ACT=FZone02_Entry2
BAS (#PTP_PARAMS,100)
SET_CD_PARAMS (0)
PTP XZone02_Entry2 C_DIS
;ENDFOLD
;ENDFOLD Platform_Below


;FOLD MudGuard
Zone_02_03()
;FOLD PTP Zone02_Entry3 CONT Vel= 100 % PDATP4 Tool[0] Base[1]   ;%{PE}
;FOLD Parameters ;%{h}
;Params IlfProvider=kukaroboter.basistech.inlineforms.movement.old; Kuka.IsGlobalPoint=False; Kuka.PointName=Zone02_Entry3; Kuka.BlendingEnabled=True; Kuka.MoveDataPtpName=PDATP4; Kuka.VelocityPtp=100; Kuka.CurrentCDSetIndex=0; Kuka.MovementParameterFieldEnabled=True; IlfCommand=PTP
;ENDFOLD
$BWDSTART = FALSE
PDAT_ACT=PPDATP4
FDAT_ACT=FZone02_Entry3
BAS (#PTP_PARAMS,100)
SET_CD_PARAMS (0)
PTP XZone02_Entry3 C_DIS
;ENDFOLD
;ENDFOLD MudGuard

;FOLD PTP Zone02_Entry4 CONT Vel= 100 % PDATP4 Tool[0] Base[1]   ;%{PE}
;FOLD Parameters ;%{h}
;Params IlfProvider=kukaroboter.basistech.inlineforms.movement.old; Kuka.IsGlobalPoint=False; Kuka.PointName=Zone02_Entry4; Kuka.BlendingEnabled=True; Kuka.MoveDataPtpName=PDATP4; Kuka.VelocityPtp=100; Kuka.CurrentCDSetIndex=0; Kuka.MovementParameterFieldEnabled=True; IlfCommand=PTP
;ENDFOLD
$BWDSTART = FALSE
PDAT_ACT=PPDATP4
FDAT_ACT=FZone02_Entry4
BAS (#PTP_PARAMS,100)
SET_CD_PARAMS (0)
PTP XZone02_Entry4 C_DIS
;ENDFOLD
END


DEF Zone03_FrontWheel()

;FOLD PTP Zone03_Entry CONT Vel= 100 % PDATP5 Tool[0] Base[1]   ;%{PE}
;FOLD Parameters ;%{h}
;Params IlfProvider=kukaroboter.basistech.inlineforms.movement.old; Kuka.IsGlobalPoint=False; Kuka.PointName=Zone03_Entry; Kuka.BlendingEnabled=True; Kuka.MoveDataPtpName=PDATP5; Kuka.VelocityPtp=100; Kuka.CurrentCDSetIndex=0; Kuka.MovementParameterFieldEnabled=True; IlfCommand=PTP
;ENDFOLD
$BWDSTART = FALSE
PDAT_ACT=PPDATP5
FDAT_ACT=FZone03_Entry
BAS (#PTP_PARAMS,100)
SET_CD_PARAMS (0)
PTP XZone03_Entry C_DIS
;ENDFOLD

;FOLD FrontWheel_Rim
Zone03_01()
;FOLD PTP Zone03_Entry1 CONT Vel= 100 % PDATP5 Tool[0] Base[1]   ;%{PE}
;FOLD Parameters ;%{h}
;Params IlfProvider=kukaroboter.basistech.inlineforms.movement.old; Kuka.IsGlobalPoint=False; Kuka.PointName=Zone03_Entry1; Kuka.BlendingEnabled=True; Kuka.MoveDataPtpName=PDATP5; Kuka.VelocityPtp=100; Kuka.CurrentCDSetIndex=0; Kuka.MovementParameterFieldEnabled=True; IlfCommand=PTP
;ENDFOLD
$BWDSTART = FALSE
PDAT_ACT=PPDATP5
FDAT_ACT=FZone03_Entry1
BAS (#PTP_PARAMS,100)
SET_CD_PARAMS (0)
PTP XZone03_Entry1 C_DIS
;ENDFOLD
;ENDFOLD FrontWheel_Rim


;FOLD FrontWheel_InnerNut
Zone03_02()
;FOLD PTP Zone03_Entry2 CONT Vel= 100 % PDATP5 Tool[0] Base[1]   ;%{PE}
;FOLD Parameters ;%{h}
;Params IlfProvider=kukaroboter.basistech.inlineforms.movement.old; Kuka.IsGlobalPoint=False; Kuka.PointName=Zone03_Entry2; Kuka.BlendingEnabled=True; Kuka.MoveDataPtpName=PDATP5; Kuka.VelocityPtp=100; Kuka.CurrentCDSetIndex=0; Kuka.MovementParameterFieldEnabled=True; IlfCommand=PTP
;ENDFOLD
$BWDSTART = FALSE
PDAT_ACT=PPDATP5
FDAT_ACT=FZone03_Entry2
BAS (#PTP_PARAMS,100)
SET_CD_PARAMS (0)
PTP XZone03_Entry2 C_DIS
;ENDFOLD
;ENDFOLD FrontWheel_InnerNut


;FOLD FrontWheel_OuterNut
Zone03_03()
;FOLD PTP Zone03_Entry3 CONT Vel= 100 % PDATP5 Tool[0] Base[1]   ;%{PE}
;FOLD Parameters ;%{h}
;Params IlfProvider=kukaroboter.basistech.inlineforms.movement.old; Kuka.IsGlobalPoint=False; Kuka.PointName=Zone03_Entry3; Kuka.BlendingEnabled=True; Kuka.MoveDataPtpName=PDATP5; Kuka.VelocityPtp=100; Kuka.CurrentCDSetIndex=0; Kuka.MovementParameterFieldEnabled=True; IlfCommand=PTP
;ENDFOLD
$BWDSTART = FALSE
PDAT_ACT=PPDATP5
FDAT_ACT=FZone03_Entry3
BAS (#PTP_PARAMS,100)
SET_CD_PARAMS (0)
PTP XZone03_Entry3 C_DIS
;ENDFOLD
;ENDFOLD FrontWheel_OuterNut

;FOLD PTP Zone03_Entry4 CONT Vel= 100 % PDATP5 Tool[0] Base[1]   ;%{PE}
;FOLD Parameters ;%{h}
;Params IlfProvider=kukaroboter.basistech.inlineforms.movement.old; Kuka.IsGlobalPoint=False; Kuka.PointName=Zone03_Entry4; Kuka.BlendingEnabled=True; Kuka.MoveDataPtpName=PDATP5; Kuka.VelocityPtp=100; Kuka.CurrentCDSetIndex=0; Kuka.MovementParameterFieldEnabled=True; IlfCommand=PTP
;ENDFOLD
$BWDSTART = FALSE
PDAT_ACT=PPDATP5
FDAT_ACT=FZone03_Entry4
BAS (#PTP_PARAMS,100)
SET_CD_PARAMS (0)
PTP XZone03_Entry4 C_DIS
;ENDFOLD
END


DEF Zone04_MidChassis()

;FOLD PTP Zone04_Entry CONT Vel= 100 % PDATP6 Tool[0] Base[1]   ;%{PE}
;FOLD Parameters ;%{h}
;Params IlfProvider=kukaroboter.basistech.inlineforms.movement.old; Kuka.IsGlobalPoint=False; Kuka.PointName=Zone04_Entry; Kuka.BlendingEnabled=True; Kuka.MoveDataPtpName=PDATP6; Kuka.VelocityPtp=100; Kuka.CurrentCDSetIndex=0; Kuka.MovementParameterFieldEnabled=True; IlfCommand=PTP
;ENDFOLD
$BWDSTART = FALSE
PDAT_ACT=PPDATP6
FDAT_ACT=FZone04_Entry
BAS (#PTP_PARAMS,100)
SET_CD_PARAMS (0)
PTP XZone04_Entry C_DIS
;ENDFOLD
;FOLD LIN P186 CONT Vel= 2 m/s CPDATP166 Tool[12] Base[1]   ;%{PE}
;FOLD Parameters ;%{h}
;Params IlfProvider=kukaroboter.basistech.inlineforms.movement.old; Kuka.IsGlobalPoint=False; Kuka.PointName=P186; Kuka.BlendingEnabled=True; Kuka.MoveDataName=CPDATP166; Kuka.VelocityPath=2; Kuka.CurrentCDSetIndex=0; Kuka.MovementParameterFieldEnabled=True; IlfCommand=LIN
;ENDFOLD
$BWDSTART = FALSE
LDAT_ACT=LCPDATP166
FDAT_ACT=FP186
BAS (#CP_PARAMS,2)
SET_CD_PARAMS (0)
LIN  XP186 C_DIS C_DIS
;ENDFOLD
;FOLD LIN P198 CONT Vel= 2 m/s CPDATP176 Tool[12] Base[1]   ;%{PE}
;FOLD Parameters ;%{h}
;Params IlfProvider=kukaroboter.basistech.inlineforms.movement.old; Kuka.IsGlobalPoint=False; Kuka.PointName=P198; Kuka.BlendingEnabled=True; Kuka.MoveDataName=CPDATP176; Kuka.VelocityPath=2; Kuka.CurrentCDSetIndex=0; Kuka.MovementParameterFieldEnabled=True; IlfCommand=LIN
;ENDFOLD
$BWDSTART = FALSE
LDAT_ACT=LCPDATP176
FDAT_ACT=FP198
BAS (#CP_PARAMS,2)
SET_CD_PARAMS (0)
LIN  XP198 C_DIS C_DIS
;ENDFOLD
;FOLD LIN P199 CONT Vel= 2 m/s CPDATP177 Tool[12] Base[1]   ;%{PE}
;FOLD Parameters ;%{h}
;Params IlfProvider=kukaroboter.basistech.inlineforms.movement.old; Kuka.IsGlobalPoint=False; Kuka.PointName=P199; Kuka.BlendingEnabled=True; Kuka.MoveDataName=CPDATP177; Kuka.VelocityPath=2; Kuka.CurrentCDSetIndex=0; Kuka.MovementParameterFieldEnabled=True; IlfCommand=LIN
;ENDFOLD
$BWDSTART = FALSE
LDAT_ACT=LCPDATP177
FDAT_ACT=FP199
BAS (#CP_PARAMS,2)
SET_CD_PARAMS (0)
LIN  XP199 C_DIS C_DIS
;ENDFOLD
;FOLD LIN P200 CONT Vel= 2 m/s CPDATP178 Tool[12] Base[1]   ;%{PE}
;FOLD Parameters ;%{h}
;Params IlfProvider=kukaroboter.basistech.inlineforms.movement.old; Kuka.IsGlobalPoint=False; Kuka.PointName=P200; Kuka.BlendingEnabled=True; Kuka.MoveDataName=CPDATP178; Kuka.VelocityPath=2; Kuka.CurrentCDSetIndex=0; Kuka.MovementParameterFieldEnabled=True; IlfCommand=LIN
;ENDFOLD
$BWDSTART = FALSE
LDAT_ACT=LCPDATP178
FDAT_ACT=FP200
BAS (#CP_PARAMS,2)
SET_CD_PARAMS (0)
LIN  XP200 C_DIS C_DIS
;ENDFOLD
;FOLD LIN P201 CONT Vel= 2 m/s CPDATP179 Tool[12] Base[1]   ;%{PE}
;FOLD Parameters ;%{h}
;Params IlfProvider=kukaroboter.basistech.inlineforms.movement.old; Kuka.IsGlobalPoint=False; Kuka.PointName=P201; Kuka.BlendingEnabled=True; Kuka.MoveDataName=CPDATP179; Kuka.VelocityPath=2; Kuka.CurrentCDSetIndex=0; Kuka.MovementParameterFieldEnabled=True; IlfCommand=LIN
;ENDFOLD
$BWDSTART = FALSE
LDAT_ACT=LCPDATP179
FDAT_ACT=FP201
BAS (#CP_PARAMS,2)
SET_CD_PARAMS (0)
LIN  XP201 C_DIS C_DIS
;ENDFOLD
;FOLD LIN P202 CONT Vel= 2 m/s CPDATP180 Tool[12] Base[1]   ;%{PE}
;FOLD Parameters ;%{h}
;Params IlfProvider=kukaroboter.basistech.inlineforms.movement.old; Kuka.IsGlobalPoint=False; Kuka.PointName=P202; Kuka.BlendingEnabled=True; Kuka.MoveDataName=CPDATP180; Kuka.VelocityPath=2; Kuka.CurrentCDSetIndex=0; Kuka.MovementParameterFieldEnabled=True; IlfCommand=LIN
;ENDFOLD
$BWDSTART = FALSE
LDAT_ACT=LCPDATP180
FDAT_ACT=FP202
BAS (#CP_PARAMS,2)
SET_CD_PARAMS (0)
LIN  XP202 C_DIS C_DIS
;ENDFOLD
;FOLD LIN P203 CONT Vel= 2 m/s CPDATP181 Tool[12] Base[1]   ;%{PE}
;FOLD Parameters ;%{h}
;Params IlfProvider=kukaroboter.basistech.inlineforms.movement.old; Kuka.IsGlobalPoint=False; Kuka.PointName=P203; Kuka.BlendingEnabled=True; Kuka.MoveDataName=CPDATP181; Kuka.VelocityPath=2; Kuka.CurrentCDSetIndex=0; Kuka.MovementParameterFieldEnabled=True; IlfCommand=LIN
;ENDFOLD
$BWDSTART = FALSE
LDAT_ACT=LCPDATP181
FDAT_ACT=FP203
BAS (#CP_PARAMS,2)
SET_CD_PARAMS (0)
LIN  XP203 C_DIS C_DIS
;ENDFOLD
;FOLD LIN P197 CONT Vel= 2 m/s CPDATP175 Tool[12] Base[1]   ;%{PE}
;FOLD Parameters ;%{h}
;Params IlfProvider=kukaroboter.basistech.inlineforms.movement.old; Kuka.IsGlobalPoint=False; Kuka.PointName=P197; Kuka.BlendingEnabled=True; Kuka.MoveDataName=CPDATP175; Kuka.VelocityPath=2; Kuka.CurrentCDSetIndex=0; Kuka.MovementParameterFieldEnabled=True; IlfCommand=LIN
;ENDFOLD
$BWDSTART = FALSE
LDAT_ACT=LCPDATP175
FDAT_ACT=FP197
BAS (#CP_PARAMS,2)
SET_CD_PARAMS (0)
LIN  XP197 C_DIS C_DIS
;ENDFOLD

;FOLD Tank_Front
()
;FOLD PTP Zone04_Entry CONT Vel= 100 % PDATP6 Tool[0] Base[1]   ;%{PE}
;FOLD Parameters ;%{h}
;Params IlfProvider=kukaroboter.basistech.inlineforms.movement.old; Kuka.IsGlobalPoint=False; Kuka.PointName=Zone04_Entry; Kuka.BlendingEnabled=True; Kuka.MoveDataPtpName=PDATP6; Kuka.VelocityPtp=100; Kuka.CurrentCDSetIndex=0; Kuka.MovementParameterFieldEnabled=True; IlfCommand=PTP
;ENDFOLD
$BWDSTART = FALSE
PDAT_ACT=PPDATP6
FDAT_ACT=FZone04_Entry
BAS (#PTP_PARAMS,100)
SET_CD_PARAMS (0)
PTP XZone04_Entry C_DIS
;ENDFOLD
;ENDFOLD Tank_Front


;FOLD Tank_Below
()
;FOLD PTP Zone04_Entry1 CONT Vel= 100 % PDATP6 Tool[0] Base[1]   ;%{PE}
;FOLD Parameters ;%{h}
;Params IlfProvider=kukaroboter.basistech.inlineforms.movement.old; Kuka.IsGlobalPoint=False; Kuka.PointName=Zone04_Entry1; Kuka.BlendingEnabled=True; Kuka.MoveDataPtpName=PDATP6; Kuka.VelocityPtp=100; Kuka.CurrentCDSetIndex=0; Kuka.MovementParameterFieldEnabled=True; IlfCommand=PTP
;ENDFOLD
$BWDSTART = FALSE
PDAT_ACT=PPDATP6
FDAT_ACT=FZone04_Entry1
BAS (#PTP_PARAMS,100)
SET_CD_PARAMS (0)
PTP XZone04_Entry1 C_DIS
;ENDFOLD
;ENDFOLD Tank_Below


;FOLD Tank_FrontSide
()
;FOLD PTP Zone04_Entry2 CONT Vel= 100 % PDATP6 Tool[0] Base[1]   ;%{PE}
;FOLD Parameters ;%{h}
;Params IlfProvider=kukaroboter.basistech.inlineforms.movement.old; Kuka.IsGlobalPoint=False; Kuka.PointName=Zone04_Entry2; Kuka.BlendingEnabled=True; Kuka.MoveDataPtpName=PDATP6; Kuka.VelocityPtp=100; Kuka.CurrentCDSetIndex=0; Kuka.MovementParameterFieldEnabled=True; IlfCommand=PTP
;ENDFOLD
$BWDSTART = FALSE
PDAT_ACT=PPDATP6
FDAT_ACT=FZone04_Entry2
BAS (#PTP_PARAMS,100)
SET_CD_PARAMS (0)
PTP XZone04_Entry2 C_DIS
;ENDFOLD
;ENDFOLD Tank_FrontSide


;FOLD Tank_RearSide
()
;FOLD PTP Zone04_Entry3 CONT Vel= 100 % PDATP6 Tool[0] Base[1]   ;%{PE}
;FOLD Parameters ;%{h}
;Params IlfProvider=kukaroboter.basistech.inlineforms.movement.old; Kuka.IsGlobalPoint=False; Kuka.PointName=Zone04_Entry3; Kuka.BlendingEnabled=True; Kuka.MoveDataPtpName=PDATP6; Kuka.VelocityPtp=100; Kuka.CurrentCDSetIndex=0; Kuka.MovementParameterFieldEnabled=True; IlfCommand=PTP
;ENDFOLD
$BWDSTART = FALSE
PDAT_ACT=PPDATP6
FDAT_ACT=FZone04_Entry3
BAS (#PTP_PARAMS,100)
SET_CD_PARAMS (0)
PTP XZone04_Entry3 C_DIS
;ENDFOLD
;ENDFOLD Tank_RearSide


;FOLD Tank_Above
()
;FOLD PTP Zone04_Entry4 CONT Vel= 100 % PDATP6 Tool[0] Base[1]   ;%{PE}
;FOLD Parameters ;%{h}
;Params IlfProvider=kukaroboter.basistech.inlineforms.movement.old; Kuka.IsGlobalPoint=False; Kuka.PointName=Zone04_Entry4; Kuka.BlendingEnabled=True; Kuka.MoveDataPtpName=PDATP6; Kuka.VelocityPtp=100; Kuka.CurrentCDSetIndex=0; Kuka.MovementParameterFieldEnabled=True; IlfCommand=PTP
;ENDFOLD
$BWDSTART = FALSE
PDAT_ACT=PPDATP6
FDAT_ACT=FZone04_Entry4
BAS (#PTP_PARAMS,100)
SET_CD_PARAMS (0)
PTP XZone04_Entry4 C_DIS
;ENDFOLD
;ENDFOLD Tank_Above

;FOLD PTP Zone04_Entry5 CONT Vel= 100 % PDATP6 Tool[0] Base[1]   ;%{PE}
;FOLD Parameters ;%{h}
;Params IlfProvider=kukaroboter.basistech.inlineforms.movement.old; Kuka.IsGlobalPoint=False; Kuka.PointName=Zone04_Entry5; Kuka.BlendingEnabled=True; Kuka.MoveDataPtpName=PDATP6; Kuka.VelocityPtp=100; Kuka.CurrentCDSetIndex=0; Kuka.MovementParameterFieldEnabled=True; IlfCommand=PTP
;ENDFOLD
$BWDSTART = FALSE
PDAT_ACT=PPDATP6
FDAT_ACT=FZone04_Entry5
BAS (#PTP_PARAMS,100)
SET_CD_PARAMS (0)
PTP XZone04_Entry5 C_DIS
;ENDFOLD
END


DEF Zone05_Cylinder()

END


DEF Zone06_BackWheel()

END


DEF Zone07_LowTruckBed()

END


DEF Zone08_HighTruckBed()

END


DEF Zone09_BackChassis()

END


DEF Zone10_BackTruckBed()

END


DEF Zone11_Unused()

END


DEF Zone12_Unused()

END


DEF Zone_01_01()


;FOLD Baja Presion
;ENDFOLD Baja Presion

;FOLD LIN P3 CONT Vel= 2 m/s CPDATP1 Tool[1] Base[1]   ;%{PE}
;FOLD Parameters ;%{h}
;Params IlfProvider=kukaroboter.basistech.inlineforms.movement.old; Kuka.IsGlobalPoint=False; Kuka.PointName=P3; Kuka.BlendingEnabled=True; Kuka.MoveDataName=CPDATP1; Kuka.VelocityPath=2; Kuka.CurrentCDSetIndex=0; Kuka.MovementParameterFieldEnabled=True; IlfCommand=LIN
;ENDFOLD
$BWDSTART = FALSE
LDAT_ACT=LCPDATP1
FDAT_ACT=FP3
BAS (#CP_PARAMS,2)
SET_CD_PARAMS (0)
LIN  XP3 C_DIS C_DIS
;ENDFOLD
;FOLD LIN P5 CONT Vel= 2 m/s CPDATP3 Tool[1] Base[1]   ;%{PE}
;FOLD Parameters ;%{h}
;Params IlfProvider=kukaroboter.basistech.inlineforms.movement.old; Kuka.IsGlobalPoint=False; Kuka.PointName=P5; Kuka.BlendingEnabled=True; Kuka.MoveDataName=CPDATP3; Kuka.VelocityPath=2; Kuka.CurrentCDSetIndex=0; Kuka.MovementParameterFieldEnabled=True; IlfCommand=LIN
;ENDFOLD
$BWDSTART = FALSE
LDAT_ACT=LCPDATP3
FDAT_ACT=FP5
BAS (#CP_PARAMS,2)
SET_CD_PARAMS (0)
LIN  XP5 C_DIS C_DIS
;ENDFOLD

;FOLD Alta Presion
;FOLD LIN P4 CONT Vel= 2 m/s CPDATP2 Tool[1] Base[1]   ;%{PE}
;FOLD Parameters ;%{h}
;Params IlfProvider=kukaroboter.basistech.inlineforms.movement.old; Kuka.IsGlobalPoint=False; Kuka.PointName=P4; Kuka.BlendingEnabled=True; Kuka.MoveDataName=CPDATP2; Kuka.VelocityPath=2; Kuka.CurrentCDSetIndex=0; Kuka.MovementParameterFieldEnabled=True; IlfCommand=LIN
;ENDFOLD
$BWDSTART = FALSE
LDAT_ACT=LCPDATP2
FDAT_ACT=FP4
BAS (#CP_PARAMS,2)
SET_CD_PARAMS (0)
LIN  XP4 C_DIS C_DIS
;ENDFOLD
;ENDFOLD Alta Presion

END


DEF Zone_01_02()

;FOLD LIN P6 CONT Vel= 2 m/s CPDATP4 Tool[1] Base[1]   ;%{PE}
;FOLD Parameters ;%{h}
;Params IlfProvider=kukaroboter.basistech.inlineforms.movement.old; Kuka.IsGlobalPoint=False; Kuka.PointName=P6; Kuka.BlendingEnabled=True; Kuka.MoveDataName=CPDATP4; Kuka.VelocityPath=2; Kuka.CurrentCDSetIndex=0; Kuka.MovementParameterFieldEnabled=True; IlfCommand=LIN
;ENDFOLD
$BWDSTART = FALSE
LDAT_ACT=LCPDATP4
FDAT_ACT=FP6
BAS (#CP_PARAMS,2)
SET_CD_PARAMS (0)
LIN  XP6 C_DIS C_DIS
;ENDFOLD
;FOLD LIN P21 CONT Vel= 2 m/s CPDATP4 Tool[1] Base[1]   ;%{PE}
;FOLD Parameters ;%{h}
;Params IlfProvider=kukaroboter.basistech.inlineforms.movement.old; Kuka.IsGlobalPoint=False; Kuka.PointName=P21; Kuka.BlendingEnabled=True; Kuka.MoveDataName=CPDATP4; Kuka.VelocityPath=2; Kuka.CurrentCDSetIndex=0; Kuka.MovementParameterFieldEnabled=True; IlfCommand=LIN
;ENDFOLD
$BWDSTART = FALSE
LDAT_ACT=LCPDATP4
FDAT_ACT=FP21
BAS (#CP_PARAMS,2)
SET_CD_PARAMS (0)
LIN  XP21 C_DIS C_DIS
;ENDFOLD
;FOLD LIN P22 CONT Vel= 2 m/s CPDATP5 Tool[1] Base[1]   ;%{PE}
;FOLD Parameters ;%{h}
;Params IlfProvider=kukaroboter.basistech.inlineforms.movement.old; Kuka.IsGlobalPoint=False; Kuka.PointName=P22; Kuka.BlendingEnabled=True; Kuka.MoveDataName=CPDATP5; Kuka.VelocityPath=2; Kuka.CurrentCDSetIndex=0; Kuka.MovementParameterFieldEnabled=True; IlfCommand=LIN
;ENDFOLD
$BWDSTART = FALSE
LDAT_ACT=LCPDATP5
FDAT_ACT=FP22
BAS (#CP_PARAMS,2)
SET_CD_PARAMS (0)
LIN  XP22 C_DIS C_DIS
;ENDFOLD
;FOLD LIN P7 CONT Vel= 2 m/s CPDATP5 Tool[1] Base[1]   ;%{PE}
;FOLD Parameters ;%{h}
;Params IlfProvider=kukaroboter.basistech.inlineforms.movement.old; Kuka.IsGlobalPoint=False; Kuka.PointName=P7; Kuka.BlendingEnabled=True; Kuka.MoveDataName=CPDATP5; Kuka.VelocityPath=2; Kuka.CurrentCDSetIndex=0; Kuka.MovementParameterFieldEnabled=True; IlfCommand=LIN
;ENDFOLD
$BWDSTART = FALSE
LDAT_ACT=LCPDATP5
FDAT_ACT=FP7
BAS (#CP_PARAMS,2)
SET_CD_PARAMS (0)
LIN  XP7 C_DIS C_DIS
;ENDFOLD
;FOLD LIN P8 CONT Vel= 2 m/s CPDATP6 Tool[1] Base[1]   ;%{PE}
;FOLD Parameters ;%{h}
;Params IlfProvider=kukaroboter.basistech.inlineforms.movement.old; Kuka.IsGlobalPoint=False; Kuka.PointName=P8; Kuka.BlendingEnabled=True; Kuka.MoveDataName=CPDATP6; Kuka.VelocityPath=2; Kuka.CurrentCDSetIndex=0; Kuka.MovementParameterFieldEnabled=True; IlfCommand=LIN
;ENDFOLD
$BWDSTART = FALSE
LDAT_ACT=LCPDATP6
FDAT_ACT=FP8
BAS (#CP_PARAMS,2)
SET_CD_PARAMS (0)
LIN  XP8 C_DIS C_DIS
;ENDFOLD
;FOLD LIN P23 CONT Vel= 2 m/s CPDATP6 Tool[1] Base[1]   ;%{PE}
;FOLD Parameters ;%{h}
;Params IlfProvider=kukaroboter.basistech.inlineforms.movement.old; Kuka.IsGlobalPoint=False; Kuka.PointName=P23; Kuka.BlendingEnabled=True; Kuka.MoveDataName=CPDATP6; Kuka.VelocityPath=2; Kuka.CurrentCDSetIndex=0; Kuka.MovementParameterFieldEnabled=True; IlfCommand=LIN
;ENDFOLD
$BWDSTART = FALSE
LDAT_ACT=LCPDATP6
FDAT_ACT=FP23
BAS (#CP_PARAMS,2)
SET_CD_PARAMS (0)
LIN  XP23 C_DIS C_DIS
;ENDFOLD
;FOLD LIN P24 CONT Vel= 2 m/s CPDATP7 Tool[1] Base[1]   ;%{PE}
;FOLD Parameters ;%{h}
;Params IlfProvider=kukaroboter.basistech.inlineforms.movement.old; Kuka.IsGlobalPoint=False; Kuka.PointName=P24; Kuka.BlendingEnabled=True; Kuka.MoveDataName=CPDATP7; Kuka.VelocityPath=2; Kuka.CurrentCDSetIndex=0; Kuka.MovementParameterFieldEnabled=True; IlfCommand=LIN
;ENDFOLD
$BWDSTART = FALSE
LDAT_ACT=LCPDATP7
FDAT_ACT=FP24
BAS (#CP_PARAMS,2)
SET_CD_PARAMS (0)
LIN  XP24 C_DIS C_DIS
;ENDFOLD
;FOLD LIN P9 CONT Vel= 2 m/s CPDATP7 Tool[1] Base[1]   ;%{PE}
;FOLD Parameters ;%{h}
;Params IlfProvider=kukaroboter.basistech.inlineforms.movement.old; Kuka.IsGlobalPoint=False; Kuka.PointName=P9; Kuka.BlendingEnabled=True; Kuka.MoveDataName=CPDATP7; Kuka.VelocityPath=2; Kuka.CurrentCDSetIndex=0; Kuka.MovementParameterFieldEnabled=True; IlfCommand=LIN
;ENDFOLD
$BWDSTART = FALSE
LDAT_ACT=LCPDATP7
FDAT_ACT=FP9
BAS (#CP_PARAMS,2)
SET_CD_PARAMS (0)
LIN  XP9 C_DIS C_DIS
;ENDFOLD
;FOLD LIN P10 CONT Vel= 2 m/s CPDATP8 Tool[1] Base[1]   ;%{PE}
;FOLD Parameters ;%{h}
;Params IlfProvider=kukaroboter.basistech.inlineforms.movement.old; Kuka.IsGlobalPoint=False; Kuka.PointName=P10; Kuka.BlendingEnabled=True; Kuka.MoveDataName=CPDATP8; Kuka.VelocityPath=2; Kuka.CurrentCDSetIndex=0; Kuka.MovementParameterFieldEnabled=True; IlfCommand=LIN
;ENDFOLD
$BWDSTART = FALSE
LDAT_ACT=LCPDATP8
FDAT_ACT=FP10
BAS (#CP_PARAMS,2)
SET_CD_PARAMS (0)
LIN  XP10 C_DIS C_DIS
;ENDFOLD
;FOLD LIN P25 CONT Vel= 2 m/s CPDATP8 Tool[1] Base[1]   ;%{PE}
;FOLD Parameters ;%{h}
;Params IlfProvider=kukaroboter.basistech.inlineforms.movement.old; Kuka.IsGlobalPoint=False; Kuka.PointName=P25; Kuka.BlendingEnabled=True; Kuka.MoveDataName=CPDATP8; Kuka.VelocityPath=2; Kuka.CurrentCDSetIndex=0; Kuka.MovementParameterFieldEnabled=True; IlfCommand=LIN
;ENDFOLD
$BWDSTART = FALSE
LDAT_ACT=LCPDATP8
FDAT_ACT=FP25
BAS (#CP_PARAMS,2)
SET_CD_PARAMS (0)
LIN  XP25 C_DIS C_DIS
;ENDFOLD
;FOLD LIN P26 CONT Vel= 2 m/s CPDATP9 Tool[1] Base[1]   ;%{PE}
;FOLD Parameters ;%{h}
;Params IlfProvider=kukaroboter.basistech.inlineforms.movement.old; Kuka.IsGlobalPoint=False; Kuka.PointName=P26; Kuka.BlendingEnabled=True; Kuka.MoveDataName=CPDATP9; Kuka.VelocityPath=2; Kuka.CurrentCDSetIndex=0; Kuka.MovementParameterFieldEnabled=True; IlfCommand=LIN
;ENDFOLD
$BWDSTART = FALSE
LDAT_ACT=LCPDATP9
FDAT_ACT=FP26
BAS (#CP_PARAMS,2)
SET_CD_PARAMS (0)
LIN  XP26 C_DIS C_DIS
;ENDFOLD
;FOLD LIN P11 CONT Vel= 2 m/s CPDATP9 Tool[1] Base[1]   ;%{PE}
;FOLD Parameters ;%{h}
;Params IlfProvider=kukaroboter.basistech.inlineforms.movement.old; Kuka.IsGlobalPoint=False; Kuka.PointName=P11; Kuka.BlendingEnabled=True; Kuka.MoveDataName=CPDATP9; Kuka.VelocityPath=2; Kuka.CurrentCDSetIndex=0; Kuka.MovementParameterFieldEnabled=True; IlfCommand=LIN
;ENDFOLD
$BWDSTART = FALSE
LDAT_ACT=LCPDATP9
FDAT_ACT=FP11
BAS (#CP_PARAMS,2)
SET_CD_PARAMS (0)
LIN  XP11 C_DIS C_DIS
;ENDFOLD
;FOLD LIN P12 CONT Vel= 2 m/s CPDATP10 Tool[1] Base[1]   ;%{PE}
;FOLD Parameters ;%{h}
;Params IlfProvider=kukaroboter.basistech.inlineforms.movement.old; Kuka.IsGlobalPoint=False; Kuka.PointName=P12; Kuka.BlendingEnabled=True; Kuka.MoveDataName=CPDATP10; Kuka.VelocityPath=2; Kuka.CurrentCDSetIndex=0; Kuka.MovementParameterFieldEnabled=True; IlfCommand=LIN
;ENDFOLD
$BWDSTART = FALSE
LDAT_ACT=LCPDATP10
FDAT_ACT=FP12
BAS (#CP_PARAMS,2)
SET_CD_PARAMS (0)
LIN  XP12 C_DIS C_DIS
;ENDFOLD
;FOLD LIN P27 CONT Vel= 2 m/s CPDATP10 Tool[1] Base[1]   ;%{PE}
;FOLD Parameters ;%{h}
;Params IlfProvider=kukaroboter.basistech.inlineforms.movement.old; Kuka.IsGlobalPoint=False; Kuka.PointName=P27; Kuka.BlendingEnabled=True; Kuka.MoveDataName=CPDATP10; Kuka.VelocityPath=2; Kuka.CurrentCDSetIndex=0; Kuka.MovementParameterFieldEnabled=True; IlfCommand=LIN
;ENDFOLD
$BWDSTART = FALSE
LDAT_ACT=LCPDATP10
FDAT_ACT=FP27
BAS (#CP_PARAMS,2)
SET_CD_PARAMS (0)
LIN  XP27 C_DIS C_DIS
;ENDFOLD
;FOLD LIN P28 CONT Vel= 2 m/s CPDATP11 Tool[1] Base[1]   ;%{PE}
;FOLD Parameters ;%{h}
;Params IlfProvider=kukaroboter.basistech.inlineforms.movement.old; Kuka.IsGlobalPoint=False; Kuka.PointName=P28; Kuka.BlendingEnabled=True; Kuka.MoveDataName=CPDATP11; Kuka.VelocityPath=2; Kuka.CurrentCDSetIndex=0; Kuka.MovementParameterFieldEnabled=True; IlfCommand=LIN
;ENDFOLD
$BWDSTART = FALSE
LDAT_ACT=LCPDATP11
FDAT_ACT=FP28
BAS (#CP_PARAMS,2)
SET_CD_PARAMS (0)
LIN  XP28 C_DIS C_DIS
;ENDFOLD
;FOLD LIN P13 CONT Vel= 2 m/s CPDATP11 Tool[1] Base[1]   ;%{PE}
;FOLD Parameters ;%{h}
;Params IlfProvider=kukaroboter.basistech.inlineforms.movement.old; Kuka.IsGlobalPoint=False; Kuka.PointName=P13; Kuka.BlendingEnabled=True; Kuka.MoveDataName=CPDATP11; Kuka.VelocityPath=2; Kuka.CurrentCDSetIndex=0; Kuka.MovementParameterFieldEnabled=True; IlfCommand=LIN
;ENDFOLD
$BWDSTART = FALSE
LDAT_ACT=LCPDATP11
FDAT_ACT=FP13
BAS (#CP_PARAMS,2)
SET_CD_PARAMS (0)
LIN  XP13 C_DIS C_DIS
;ENDFOLD
;FOLD LIN P14 CONT Vel= 2 m/s CPDATP12 Tool[1] Base[1]   ;%{PE}
;FOLD Parameters ;%{h}
;Params IlfProvider=kukaroboter.basistech.inlineforms.movement.old; Kuka.IsGlobalPoint=False; Kuka.PointName=P14; Kuka.BlendingEnabled=True; Kuka.MoveDataName=CPDATP12; Kuka.VelocityPath=2; Kuka.CurrentCDSetIndex=0; Kuka.MovementParameterFieldEnabled=True; IlfCommand=LIN
;ENDFOLD
$BWDSTART = FALSE
LDAT_ACT=LCPDATP12
FDAT_ACT=FP14
BAS (#CP_PARAMS,2)
SET_CD_PARAMS (0)
LIN  XP14 C_DIS C_DIS
;ENDFOLD
;FOLD LIN P29 CONT Vel= 2 m/s CPDATP12 Tool[1] Base[1]   ;%{PE}
;FOLD Parameters ;%{h}
;Params IlfProvider=kukaroboter.basistech.inlineforms.movement.old; Kuka.IsGlobalPoint=False; Kuka.PointName=P29; Kuka.BlendingEnabled=True; Kuka.MoveDataName=CPDATP12; Kuka.VelocityPath=2; Kuka.CurrentCDSetIndex=0; Kuka.MovementParameterFieldEnabled=True; IlfCommand=LIN
;ENDFOLD
$BWDSTART = FALSE
LDAT_ACT=LCPDATP12
FDAT_ACT=FP29
BAS (#CP_PARAMS,2)
SET_CD_PARAMS (0)
LIN  XP29 C_DIS C_DIS
;ENDFOLD
;FOLD LIN P30 CONT Vel= 2 m/s CPDATP13 Tool[1] Base[1]   ;%{PE}
;FOLD Parameters ;%{h}
;Params IlfProvider=kukaroboter.basistech.inlineforms.movement.old; Kuka.IsGlobalPoint=False; Kuka.PointName=P30; Kuka.BlendingEnabled=True; Kuka.MoveDataName=CPDATP13; Kuka.VelocityPath=2; Kuka.CurrentCDSetIndex=0; Kuka.MovementParameterFieldEnabled=True; IlfCommand=LIN
;ENDFOLD
$BWDSTART = FALSE
LDAT_ACT=LCPDATP13
FDAT_ACT=FP30
BAS (#CP_PARAMS,2)
SET_CD_PARAMS (0)
LIN  XP30 C_DIS C_DIS
;ENDFOLD
;FOLD LIN P15 CONT Vel= 2 m/s CPDATP13 Tool[1] Base[1]   ;%{PE}
;FOLD Parameters ;%{h}
;Params IlfProvider=kukaroboter.basistech.inlineforms.movement.old; Kuka.IsGlobalPoint=False; Kuka.PointName=P15; Kuka.BlendingEnabled=True; Kuka.MoveDataName=CPDATP13; Kuka.VelocityPath=2; Kuka.CurrentCDSetIndex=0; Kuka.MovementParameterFieldEnabled=True; IlfCommand=LIN
;ENDFOLD
$BWDSTART = FALSE
LDAT_ACT=LCPDATP13
FDAT_ACT=FP15
BAS (#CP_PARAMS,2)
SET_CD_PARAMS (0)
LIN  XP15 C_DIS C_DIS
;ENDFOLD
;FOLD LIN P16 CONT Vel= 2 m/s CPDATP14 Tool[1] Base[1]   ;%{PE}
;FOLD Parameters ;%{h}
;Params IlfProvider=kukaroboter.basistech.inlineforms.movement.old; Kuka.IsGlobalPoint=False; Kuka.PointName=P16; Kuka.BlendingEnabled=True; Kuka.MoveDataName=CPDATP14; Kuka.VelocityPath=2; Kuka.CurrentCDSetIndex=0; Kuka.MovementParameterFieldEnabled=True; IlfCommand=LIN
;ENDFOLD
$BWDSTART = FALSE
LDAT_ACT=LCPDATP14
FDAT_ACT=FP16
BAS (#CP_PARAMS,2)
SET_CD_PARAMS (0)
LIN  XP16 C_DIS C_DIS
;ENDFOLD
;FOLD LIN P31 CONT Vel= 2 m/s CPDATP14 Tool[1] Base[1]   ;%{PE}
;FOLD Parameters ;%{h}
;Params IlfProvider=kukaroboter.basistech.inlineforms.movement.old; Kuka.IsGlobalPoint=False; Kuka.PointName=P31; Kuka.BlendingEnabled=True; Kuka.MoveDataName=CPDATP14; Kuka.VelocityPath=2; Kuka.CurrentCDSetIndex=0; Kuka.MovementParameterFieldEnabled=True; IlfCommand=LIN
;ENDFOLD
$BWDSTART = FALSE
LDAT_ACT=LCPDATP14
FDAT_ACT=FP31
BAS (#CP_PARAMS,2)
SET_CD_PARAMS (0)
LIN  XP31 C_DIS C_DIS
;ENDFOLD
;FOLD LIN P32 CONT Vel= 2 m/s CPDATP15 Tool[1] Base[1]   ;%{PE}
;FOLD Parameters ;%{h}
;Params IlfProvider=kukaroboter.basistech.inlineforms.movement.old; Kuka.IsGlobalPoint=False; Kuka.PointName=P32; Kuka.BlendingEnabled=True; Kuka.MoveDataName=CPDATP15; Kuka.VelocityPath=2; Kuka.CurrentCDSetIndex=0; Kuka.MovementParameterFieldEnabled=True; IlfCommand=LIN
;ENDFOLD
$BWDSTART = FALSE
LDAT_ACT=LCPDATP15
FDAT_ACT=FP32
BAS (#CP_PARAMS,2)
SET_CD_PARAMS (0)
LIN  XP32 C_DIS C_DIS
;ENDFOLD
;FOLD LIN P17 CONT Vel= 2 m/s CPDATP15 Tool[1] Base[1]   ;%{PE}
;FOLD Parameters ;%{h}
;Params IlfProvider=kukaroboter.basistech.inlineforms.movement.old; Kuka.IsGlobalPoint=False; Kuka.PointName=P17; Kuka.BlendingEnabled=True; Kuka.MoveDataName=CPDATP15; Kuka.VelocityPath=2; Kuka.CurrentCDSetIndex=0; Kuka.MovementParameterFieldEnabled=True; IlfCommand=LIN
;ENDFOLD
$BWDSTART = FALSE
LDAT_ACT=LCPDATP15
FDAT_ACT=FP17
BAS (#CP_PARAMS,2)
SET_CD_PARAMS (0)
LIN  XP17 C_DIS C_DIS
;ENDFOLD
;FOLD LIN P18 CONT Vel= 2 m/s CPDATP16 Tool[1] Base[1]   ;%{PE}
;FOLD Parameters ;%{h}
;Params IlfProvider=kukaroboter.basistech.inlineforms.movement.old; Kuka.IsGlobalPoint=False; Kuka.PointName=P18; Kuka.BlendingEnabled=True; Kuka.MoveDataName=CPDATP16; Kuka.VelocityPath=2; Kuka.CurrentCDSetIndex=0; Kuka.MovementParameterFieldEnabled=True; IlfCommand=LIN
;ENDFOLD
$BWDSTART = FALSE
LDAT_ACT=LCPDATP16
FDAT_ACT=FP18
BAS (#CP_PARAMS,2)
SET_CD_PARAMS (0)
LIN  XP18 C_DIS C_DIS
;ENDFOLD
;FOLD LIN P33 CONT Vel= 2 m/s CPDATP16 Tool[1] Base[1]   ;%{PE}
;FOLD Parameters ;%{h}
;Params IlfProvider=kukaroboter.basistech.inlineforms.movement.old; Kuka.IsGlobalPoint=False; Kuka.PointName=P33; Kuka.BlendingEnabled=True; Kuka.MoveDataName=CPDATP16; Kuka.VelocityPath=2; Kuka.CurrentCDSetIndex=0; Kuka.MovementParameterFieldEnabled=True; IlfCommand=LIN
;ENDFOLD
$BWDSTART = FALSE
LDAT_ACT=LCPDATP16
FDAT_ACT=FP33
BAS (#CP_PARAMS,2)
SET_CD_PARAMS (0)
LIN  XP33 C_DIS C_DIS
;ENDFOLD
;FOLD LIN P34 CONT Vel= 2 m/s CPDATP17 Tool[1] Base[1]   ;%{PE}
;FOLD Parameters ;%{h}
;Params IlfProvider=kukaroboter.basistech.inlineforms.movement.old; Kuka.IsGlobalPoint=False; Kuka.PointName=P34; Kuka.BlendingEnabled=True; Kuka.MoveDataName=CPDATP17; Kuka.VelocityPath=2; Kuka.CurrentCDSetIndex=0; Kuka.MovementParameterFieldEnabled=True; IlfCommand=LIN
;ENDFOLD
$BWDSTART = FALSE
LDAT_ACT=LCPDATP17
FDAT_ACT=FP34
BAS (#CP_PARAMS,2)
SET_CD_PARAMS (0)
LIN  XP34 C_DIS C_DIS
;ENDFOLD
;FOLD LIN P19 CONT Vel= 2 m/s CPDATP17 Tool[1] Base[1]   ;%{PE}
;FOLD Parameters ;%{h}
;Params IlfProvider=kukaroboter.basistech.inlineforms.movement.old; Kuka.IsGlobalPoint=False; Kuka.PointName=P19; Kuka.BlendingEnabled=True; Kuka.MoveDataName=CPDATP17; Kuka.VelocityPath=2; Kuka.CurrentCDSetIndex=0; Kuka.MovementParameterFieldEnabled=True; IlfCommand=LIN
;ENDFOLD
$BWDSTART = FALSE
LDAT_ACT=LCPDATP17
FDAT_ACT=FP19
BAS (#CP_PARAMS,2)
SET_CD_PARAMS (0)
LIN  XP19 C_DIS C_DIS
;ENDFOLD
;FOLD LIN P20 CONT Vel= 2 m/s CPDATP18 Tool[1] Base[1]   ;%{PE}
;FOLD Parameters ;%{h}
;Params IlfProvider=kukaroboter.basistech.inlineforms.movement.old; Kuka.IsGlobalPoint=False; Kuka.PointName=P20; Kuka.BlendingEnabled=True; Kuka.MoveDataName=CPDATP18; Kuka.VelocityPath=2; Kuka.CurrentCDSetIndex=0; Kuka.MovementParameterFieldEnabled=True; IlfCommand=LIN
;ENDFOLD
$BWDSTART = FALSE
LDAT_ACT=LCPDATP18
FDAT_ACT=FP20
BAS (#CP_PARAMS,2)
SET_CD_PARAMS (0)
LIN  XP20 C_DIS C_DIS
;ENDFOLD
;FOLD LIN P35 CONT Vel= 2 m/s CPDATP18 Tool[1] Base[1]   ;%{PE}
;FOLD Parameters ;%{h}
;Params IlfProvider=kukaroboter.basistech.inlineforms.movement.old; Kuka.IsGlobalPoint=False; Kuka.PointName=P35; Kuka.BlendingEnabled=True; Kuka.MoveDataName=CPDATP18; Kuka.VelocityPath=2; Kuka.CurrentCDSetIndex=0; Kuka.MovementParameterFieldEnabled=True; IlfCommand=LIN
;ENDFOLD
$BWDSTART = FALSE
LDAT_ACT=LCPDATP18
FDAT_ACT=FP35
BAS (#CP_PARAMS,2)
SET_CD_PARAMS (0)
LIN  XP35 C_DIS C_DIS
;ENDFOLD
END


DEF Zone_01_03()

;FOLD LIN P36 CONT Vel= 2 m/s CPDATP19 Tool[1] Base[1]   ;%{PE}
;FOLD Parameters ;%{h}
;Params IlfProvider=kukaroboter.basistech.inlineforms.movement.old; Kuka.IsGlobalPoint=False; Kuka.PointName=P36; Kuka.BlendingEnabled=True; Kuka.MoveDataName=CPDATP19; Kuka.VelocityPath=2; Kuka.CurrentCDSetIndex=0; Kuka.MovementParameterFieldEnabled=True; IlfCommand=LIN
;ENDFOLD
$BWDSTART = FALSE
LDAT_ACT=LCPDATP19
FDAT_ACT=FP36
BAS (#CP_PARAMS,2)
SET_CD_PARAMS (0)
LIN  XP36 C_DIS C_DIS
;ENDFOLD
;FOLD LIN P51 CONT Vel= 2 m/s CPDATP34 Tool[1] Base[1]   ;%{PE}
;FOLD Parameters ;%{h}
;Params IlfProvider=kukaroboter.basistech.inlineforms.movement.old; Kuka.IsGlobalPoint=False; Kuka.PointName=P51; Kuka.BlendingEnabled=True; Kuka.MoveDataName=CPDATP34; Kuka.VelocityPath=2; Kuka.CurrentCDSetIndex=0; Kuka.MovementParameterFieldEnabled=True; IlfCommand=LIN
;ENDFOLD
$BWDSTART = FALSE
LDAT_ACT=LCPDATP34
FDAT_ACT=FP51
BAS (#CP_PARAMS,2)
SET_CD_PARAMS (0)
LIN  XP51 C_DIS C_DIS
;ENDFOLD
;FOLD LIN P52 CONT Vel= 2 m/s CPDATP35 Tool[1] Base[1]   ;%{PE}
;FOLD Parameters ;%{h}
;Params IlfProvider=kukaroboter.basistech.inlineforms.movement.old; Kuka.IsGlobalPoint=False; Kuka.PointName=P52; Kuka.BlendingEnabled=True; Kuka.MoveDataName=CPDATP35; Kuka.VelocityPath=2; Kuka.CurrentCDSetIndex=0; Kuka.MovementParameterFieldEnabled=True; IlfCommand=LIN
;ENDFOLD
$BWDSTART = FALSE
LDAT_ACT=LCPDATP35
FDAT_ACT=FP52
BAS (#CP_PARAMS,2)
SET_CD_PARAMS (0)
LIN  XP52 C_DIS C_DIS
;ENDFOLD
;FOLD LIN P37 CONT Vel= 2 m/s CPDATP20 Tool[1] Base[1]   ;%{PE}
;FOLD Parameters ;%{h}
;Params IlfProvider=kukaroboter.basistech.inlineforms.movement.old; Kuka.IsGlobalPoint=False; Kuka.PointName=P37; Kuka.BlendingEnabled=True; Kuka.MoveDataName=CPDATP20; Kuka.VelocityPath=2; Kuka.CurrentCDSetIndex=0; Kuka.MovementParameterFieldEnabled=True; IlfCommand=LIN
;ENDFOLD
$BWDSTART = FALSE
LDAT_ACT=LCPDATP20
FDAT_ACT=FP37
BAS (#CP_PARAMS,2)
SET_CD_PARAMS (0)
LIN  XP37 C_DIS C_DIS
;ENDFOLD
;FOLD LIN P38 CONT Vel= 2 m/s CPDATP21 Tool[1] Base[1]   ;%{PE}
;FOLD Parameters ;%{h}
;Params IlfProvider=kukaroboter.basistech.inlineforms.movement.old; Kuka.IsGlobalPoint=False; Kuka.PointName=P38; Kuka.BlendingEnabled=True; Kuka.MoveDataName=CPDATP21; Kuka.VelocityPath=2; Kuka.CurrentCDSetIndex=0; Kuka.MovementParameterFieldEnabled=True; IlfCommand=LIN
;ENDFOLD
$BWDSTART = FALSE
LDAT_ACT=LCPDATP21
FDAT_ACT=FP38
BAS (#CP_PARAMS,2)
SET_CD_PARAMS (0)
LIN  XP38 C_DIS C_DIS
;ENDFOLD
;FOLD LIN P53 CONT Vel= 2 m/s CPDATP36 Tool[1] Base[1]   ;%{PE}
;FOLD Parameters ;%{h}
;Params IlfProvider=kukaroboter.basistech.inlineforms.movement.old; Kuka.IsGlobalPoint=False; Kuka.PointName=P53; Kuka.BlendingEnabled=True; Kuka.MoveDataName=CPDATP36; Kuka.VelocityPath=2; Kuka.CurrentCDSetIndex=0; Kuka.MovementParameterFieldEnabled=True; IlfCommand=LIN
;ENDFOLD
$BWDSTART = FALSE
LDAT_ACT=LCPDATP36
FDAT_ACT=FP53
BAS (#CP_PARAMS,2)
SET_CD_PARAMS (0)
LIN  XP53 C_DIS C_DIS
;ENDFOLD
;FOLD LIN P54 CONT Vel= 2 m/s CPDATP37 Tool[1] Base[1]   ;%{PE}
;FOLD Parameters ;%{h}
;Params IlfProvider=kukaroboter.basistech.inlineforms.movement.old; Kuka.IsGlobalPoint=False; Kuka.PointName=P54; Kuka.BlendingEnabled=True; Kuka.MoveDataName=CPDATP37; Kuka.VelocityPath=2; Kuka.CurrentCDSetIndex=0; Kuka.MovementParameterFieldEnabled=True; IlfCommand=LIN
;ENDFOLD
$BWDSTART = FALSE
LDAT_ACT=LCPDATP37
FDAT_ACT=FP54
BAS (#CP_PARAMS,2)
SET_CD_PARAMS (0)
LIN  XP54 C_DIS C_DIS
;ENDFOLD
;FOLD LIN P39 CONT Vel= 2 m/s CPDATP22 Tool[1] Base[1]   ;%{PE}
;FOLD Parameters ;%{h}
;Params IlfProvider=kukaroboter.basistech.inlineforms.movement.old; Kuka.IsGlobalPoint=False; Kuka.PointName=P39; Kuka.BlendingEnabled=True; Kuka.MoveDataName=CPDATP22; Kuka.VelocityPath=2; Kuka.CurrentCDSetIndex=0; Kuka.MovementParameterFieldEnabled=True; IlfCommand=LIN
;ENDFOLD
$BWDSTART = FALSE
LDAT_ACT=LCPDATP22
FDAT_ACT=FP39
BAS (#CP_PARAMS,2)
SET_CD_PARAMS (0)
LIN  XP39 C_DIS C_DIS
;ENDFOLD
;FOLD LIN P40 CONT Vel= 2 m/s CPDATP23 Tool[1] Base[1]   ;%{PE}
;FOLD Parameters ;%{h}
;Params IlfProvider=kukaroboter.basistech.inlineforms.movement.old; Kuka.IsGlobalPoint=False; Kuka.PointName=P40; Kuka.BlendingEnabled=True; Kuka.MoveDataName=CPDATP23; Kuka.VelocityPath=2; Kuka.CurrentCDSetIndex=0; Kuka.MovementParameterFieldEnabled=True; IlfCommand=LIN
;ENDFOLD
$BWDSTART = FALSE
LDAT_ACT=LCPDATP23
FDAT_ACT=FP40
BAS (#CP_PARAMS,2)
SET_CD_PARAMS (0)
LIN  XP40 C_DIS C_DIS
;ENDFOLD
;FOLD LIN P55 CONT Vel= 2 m/s CPDATP38 Tool[1] Base[1]   ;%{PE}
;FOLD Parameters ;%{h}
;Params IlfProvider=kukaroboter.basistech.inlineforms.movement.old; Kuka.IsGlobalPoint=False; Kuka.PointName=P55; Kuka.BlendingEnabled=True; Kuka.MoveDataName=CPDATP38; Kuka.VelocityPath=2; Kuka.CurrentCDSetIndex=0; Kuka.MovementParameterFieldEnabled=True; IlfCommand=LIN
;ENDFOLD
$BWDSTART = FALSE
LDAT_ACT=LCPDATP38
FDAT_ACT=FP55
BAS (#CP_PARAMS,2)
SET_CD_PARAMS (0)
LIN  XP55 C_DIS C_DIS
;ENDFOLD
;FOLD LIN P56 CONT Vel= 2 m/s CPDATP39 Tool[1] Base[1]   ;%{PE}
;FOLD Parameters ;%{h}
;Params IlfProvider=kukaroboter.basistech.inlineforms.movement.old; Kuka.IsGlobalPoint=False; Kuka.PointName=P56; Kuka.BlendingEnabled=True; Kuka.MoveDataName=CPDATP39; Kuka.VelocityPath=2; Kuka.CurrentCDSetIndex=0; Kuka.MovementParameterFieldEnabled=True; IlfCommand=LIN
;ENDFOLD
$BWDSTART = FALSE
LDAT_ACT=LCPDATP39
FDAT_ACT=FP56
BAS (#CP_PARAMS,2)
SET_CD_PARAMS (0)
LIN  XP56 C_DIS C_DIS
;ENDFOLD
;FOLD LIN P41 CONT Vel= 2 m/s CPDATP24 Tool[1] Base[1]   ;%{PE}
;FOLD Parameters ;%{h}
;Params IlfProvider=kukaroboter.basistech.inlineforms.movement.old; Kuka.IsGlobalPoint=False; Kuka.PointName=P41; Kuka.BlendingEnabled=True; Kuka.MoveDataName=CPDATP24; Kuka.VelocityPath=2; Kuka.CurrentCDSetIndex=0; Kuka.MovementParameterFieldEnabled=True; IlfCommand=LIN
;ENDFOLD
$BWDSTART = FALSE
LDAT_ACT=LCPDATP24
FDAT_ACT=FP41
BAS (#CP_PARAMS,2)
SET_CD_PARAMS (0)
LIN  XP41 C_DIS C_DIS
;ENDFOLD
;FOLD LIN P42 CONT Vel= 2 m/s CPDATP25 Tool[1] Base[1]   ;%{PE}
;FOLD Parameters ;%{h}
;Params IlfProvider=kukaroboter.basistech.inlineforms.movement.old; Kuka.IsGlobalPoint=False; Kuka.PointName=P42; Kuka.BlendingEnabled=True; Kuka.MoveDataName=CPDATP25; Kuka.VelocityPath=2; Kuka.CurrentCDSetIndex=0; Kuka.MovementParameterFieldEnabled=True; IlfCommand=LIN
;ENDFOLD
$BWDSTART = FALSE
LDAT_ACT=LCPDATP25
FDAT_ACT=FP42
BAS (#CP_PARAMS,2)
SET_CD_PARAMS (0)
LIN  XP42 C_DIS C_DIS
;ENDFOLD
;FOLD LIN P57 CONT Vel= 2 m/s CPDATP40 Tool[1] Base[1]   ;%{PE}
;FOLD Parameters ;%{h}
;Params IlfProvider=kukaroboter.basistech.inlineforms.movement.old; Kuka.IsGlobalPoint=False; Kuka.PointName=P57; Kuka.BlendingEnabled=True; Kuka.MoveDataName=CPDATP40; Kuka.VelocityPath=2; Kuka.CurrentCDSetIndex=0; Kuka.MovementParameterFieldEnabled=True; IlfCommand=LIN
;ENDFOLD
$BWDSTART = FALSE
LDAT_ACT=LCPDATP40
FDAT_ACT=FP57
BAS (#CP_PARAMS,2)
SET_CD_PARAMS (0)
LIN  XP57 C_DIS C_DIS
;ENDFOLD
;FOLD LIN P58 CONT Vel= 2 m/s CPDATP41 Tool[1] Base[1]   ;%{PE}
;FOLD Parameters ;%{h}
;Params IlfProvider=kukaroboter.basistech.inlineforms.movement.old; Kuka.IsGlobalPoint=False; Kuka.PointName=P58; Kuka.BlendingEnabled=True; Kuka.MoveDataName=CPDATP41; Kuka.VelocityPath=2; Kuka.CurrentCDSetIndex=0; Kuka.MovementParameterFieldEnabled=True; IlfCommand=LIN
;ENDFOLD
$BWDSTART = FALSE
LDAT_ACT=LCPDATP41
FDAT_ACT=FP58
BAS (#CP_PARAMS,2)
SET_CD_PARAMS (0)
LIN  XP58 C_DIS C_DIS
;ENDFOLD
;FOLD LIN P43 CONT Vel= 2 m/s CPDATP26 Tool[1] Base[1]   ;%{PE}
;FOLD Parameters ;%{h}
;Params IlfProvider=kukaroboter.basistech.inlineforms.movement.old; Kuka.IsGlobalPoint=False; Kuka.PointName=P43; Kuka.BlendingEnabled=True; Kuka.MoveDataName=CPDATP26; Kuka.VelocityPath=2; Kuka.CurrentCDSetIndex=0; Kuka.MovementParameterFieldEnabled=True; IlfCommand=LIN
;ENDFOLD
$BWDSTART = FALSE
LDAT_ACT=LCPDATP26
FDAT_ACT=FP43
BAS (#CP_PARAMS,2)
SET_CD_PARAMS (0)
LIN  XP43 C_DIS C_DIS
;ENDFOLD
;FOLD LIN P44 CONT Vel= 2 m/s CPDATP27 Tool[1] Base[1]   ;%{PE}
;FOLD Parameters ;%{h}
;Params IlfProvider=kukaroboter.basistech.inlineforms.movement.old; Kuka.IsGlobalPoint=False; Kuka.PointName=P44; Kuka.BlendingEnabled=True; Kuka.MoveDataName=CPDATP27; Kuka.VelocityPath=2; Kuka.CurrentCDSetIndex=0; Kuka.MovementParameterFieldEnabled=True; IlfCommand=LIN
;ENDFOLD
$BWDSTART = FALSE
LDAT_ACT=LCPDATP27
FDAT_ACT=FP44
BAS (#CP_PARAMS,2)
SET_CD_PARAMS (0)
LIN  XP44 C_DIS C_DIS
;ENDFOLD
;FOLD LIN P59 CONT Vel= 2 m/s CPDATP42 Tool[1] Base[1]   ;%{PE}
;FOLD Parameters ;%{h}
;Params IlfProvider=kukaroboter.basistech.inlineforms.movement.old; Kuka.IsGlobalPoint=False; Kuka.PointName=P59; Kuka.BlendingEnabled=True; Kuka.MoveDataName=CPDATP42; Kuka.VelocityPath=2; Kuka.CurrentCDSetIndex=0; Kuka.MovementParameterFieldEnabled=True; IlfCommand=LIN
;ENDFOLD
$BWDSTART = FALSE
LDAT_ACT=LCPDATP42
FDAT_ACT=FP59
BAS (#CP_PARAMS,2)
SET_CD_PARAMS (0)
LIN  XP59 C_DIS C_DIS
;ENDFOLD
;FOLD LIN P60 CONT Vel= 2 m/s CPDATP43 Tool[1] Base[1]   ;%{PE}
;FOLD Parameters ;%{h}
;Params IlfProvider=kukaroboter.basistech.inlineforms.movement.old; Kuka.IsGlobalPoint=False; Kuka.PointName=P60; Kuka.BlendingEnabled=True; Kuka.MoveDataName=CPDATP43; Kuka.VelocityPath=2; Kuka.CurrentCDSetIndex=0; Kuka.MovementParameterFieldEnabled=True; IlfCommand=LIN
;ENDFOLD
$BWDSTART = FALSE
LDAT_ACT=LCPDATP43
FDAT_ACT=FP60
BAS (#CP_PARAMS,2)
SET_CD_PARAMS (0)
LIN  XP60 C_DIS C_DIS
;ENDFOLD
;FOLD LIN P45 CONT Vel= 2 m/s CPDATP28 Tool[1] Base[1]   ;%{PE}
;FOLD Parameters ;%{h}
;Params IlfProvider=kukaroboter.basistech.inlineforms.movement.old; Kuka.IsGlobalPoint=False; Kuka.PointName=P45; Kuka.BlendingEnabled=True; Kuka.MoveDataName=CPDATP28; Kuka.VelocityPath=2; Kuka.CurrentCDSetIndex=0; Kuka.MovementParameterFieldEnabled=True; IlfCommand=LIN
;ENDFOLD
$BWDSTART = FALSE
LDAT_ACT=LCPDATP28
FDAT_ACT=FP45
BAS (#CP_PARAMS,2)
SET_CD_PARAMS (0)
LIN  XP45 C_DIS C_DIS
;ENDFOLD
;FOLD LIN P46 CONT Vel= 2 m/s CPDATP29 Tool[1] Base[1]   ;%{PE}
;FOLD Parameters ;%{h}
;Params IlfProvider=kukaroboter.basistech.inlineforms.movement.old; Kuka.IsGlobalPoint=False; Kuka.PointName=P46; Kuka.BlendingEnabled=True; Kuka.MoveDataName=CPDATP29; Kuka.VelocityPath=2; Kuka.CurrentCDSetIndex=0; Kuka.MovementParameterFieldEnabled=True; IlfCommand=LIN
;ENDFOLD
$BWDSTART = FALSE
LDAT_ACT=LCPDATP29
FDAT_ACT=FP46
BAS (#CP_PARAMS,2)
SET_CD_PARAMS (0)
LIN  XP46 C_DIS C_DIS
;ENDFOLD
;FOLD LIN P61 CONT Vel= 2 m/s CPDATP44 Tool[1] Base[1]   ;%{PE}
;FOLD Parameters ;%{h}
;Params IlfProvider=kukaroboter.basistech.inlineforms.movement.old; Kuka.IsGlobalPoint=False; Kuka.PointName=P61; Kuka.BlendingEnabled=True; Kuka.MoveDataName=CPDATP44; Kuka.VelocityPath=2; Kuka.CurrentCDSetIndex=0; Kuka.MovementParameterFieldEnabled=True; IlfCommand=LIN
;ENDFOLD
$BWDSTART = FALSE
LDAT_ACT=LCPDATP44
FDAT_ACT=FP61
BAS (#CP_PARAMS,2)
SET_CD_PARAMS (0)
LIN  XP61 C_DIS C_DIS
;ENDFOLD
;FOLD LIN P62 CONT Vel= 2 m/s CPDATP45 Tool[1] Base[1]   ;%{PE}
;FOLD Parameters ;%{h}
;Params IlfProvider=kukaroboter.basistech.inlineforms.movement.old; Kuka.IsGlobalPoint=False; Kuka.PointName=P62; Kuka.BlendingEnabled=True; Kuka.MoveDataName=CPDATP45; Kuka.VelocityPath=2; Kuka.CurrentCDSetIndex=0; Kuka.MovementParameterFieldEnabled=True; IlfCommand=LIN
;ENDFOLD
$BWDSTART = FALSE
LDAT_ACT=LCPDATP45
FDAT_ACT=FP62
BAS (#CP_PARAMS,2)
SET_CD_PARAMS (0)
LIN  XP62 C_DIS C_DIS
;ENDFOLD
;FOLD LIN P47 CONT Vel= 2 m/s CPDATP30 Tool[1] Base[1]   ;%{PE}
;FOLD Parameters ;%{h}
;Params IlfProvider=kukaroboter.basistech.inlineforms.movement.old; Kuka.IsGlobalPoint=False; Kuka.PointName=P47; Kuka.BlendingEnabled=True; Kuka.MoveDataName=CPDATP30; Kuka.VelocityPath=2; Kuka.CurrentCDSetIndex=0; Kuka.MovementParameterFieldEnabled=True; IlfCommand=LIN
;ENDFOLD
$BWDSTART = FALSE
LDAT_ACT=LCPDATP30
FDAT_ACT=FP47
BAS (#CP_PARAMS,2)
SET_CD_PARAMS (0)
LIN  XP47 C_DIS C_DIS
;ENDFOLD
;FOLD LIN P48 CONT Vel= 2 m/s CPDATP31 Tool[1] Base[1]   ;%{PE}
;FOLD Parameters ;%{h}
;Params IlfProvider=kukaroboter.basistech.inlineforms.movement.old; Kuka.IsGlobalPoint=False; Kuka.PointName=P48; Kuka.BlendingEnabled=True; Kuka.MoveDataName=CPDATP31; Kuka.VelocityPath=2; Kuka.CurrentCDSetIndex=0; Kuka.MovementParameterFieldEnabled=True; IlfCommand=LIN
;ENDFOLD
$BWDSTART = FALSE
LDAT_ACT=LCPDATP31
FDAT_ACT=FP48
BAS (#CP_PARAMS,2)
SET_CD_PARAMS (0)
LIN  XP48 C_DIS C_DIS
;ENDFOLD
;FOLD LIN P63 CONT Vel= 2 m/s CPDATP46 Tool[1] Base[1]   ;%{PE}
;FOLD Parameters ;%{h}
;Params IlfProvider=kukaroboter.basistech.inlineforms.movement.old; Kuka.IsGlobalPoint=False; Kuka.PointName=P63; Kuka.BlendingEnabled=True; Kuka.MoveDataName=CPDATP46; Kuka.VelocityPath=2; Kuka.CurrentCDSetIndex=0; Kuka.MovementParameterFieldEnabled=True; IlfCommand=LIN
;ENDFOLD
$BWDSTART = FALSE
LDAT_ACT=LCPDATP46
FDAT_ACT=FP63
BAS (#CP_PARAMS,2)
SET_CD_PARAMS (0)
LIN  XP63 C_DIS C_DIS
;ENDFOLD
;FOLD LIN P64 CONT Vel= 2 m/s CPDATP47 Tool[1] Base[1]   ;%{PE}
;FOLD Parameters ;%{h}
;Params IlfProvider=kukaroboter.basistech.inlineforms.movement.old; Kuka.IsGlobalPoint=False; Kuka.PointName=P64; Kuka.BlendingEnabled=True; Kuka.MoveDataName=CPDATP47; Kuka.VelocityPath=2; Kuka.CurrentCDSetIndex=0; Kuka.MovementParameterFieldEnabled=True; IlfCommand=LIN
;ENDFOLD
$BWDSTART = FALSE
LDAT_ACT=LCPDATP47
FDAT_ACT=FP64
BAS (#CP_PARAMS,2)
SET_CD_PARAMS (0)
LIN  XP64 C_DIS C_DIS
;ENDFOLD
;FOLD LIN P49 CONT Vel= 2 m/s CPDATP32 Tool[1] Base[1]   ;%{PE}
;FOLD Parameters ;%{h}
;Params IlfProvider=kukaroboter.basistech.inlineforms.movement.old; Kuka.IsGlobalPoint=False; Kuka.PointName=P49; Kuka.BlendingEnabled=True; Kuka.MoveDataName=CPDATP32; Kuka.VelocityPath=2; Kuka.CurrentCDSetIndex=0; Kuka.MovementParameterFieldEnabled=True; IlfCommand=LIN
;ENDFOLD
$BWDSTART = FALSE
LDAT_ACT=LCPDATP32
FDAT_ACT=FP49
BAS (#CP_PARAMS,2)
SET_CD_PARAMS (0)
LIN  XP49 C_DIS C_DIS
;ENDFOLD
;FOLD LIN P50 CONT Vel= 2 m/s CPDATP33 Tool[1] Base[1]   ;%{PE}
;FOLD Parameters ;%{h}
;Params IlfProvider=kukaroboter.basistech.inlineforms.movement.old; Kuka.IsGlobalPoint=False; Kuka.PointName=P50; Kuka.BlendingEnabled=True; Kuka.MoveDataName=CPDATP33; Kuka.VelocityPath=2; Kuka.CurrentCDSetIndex=0; Kuka.MovementParameterFieldEnabled=True; IlfCommand=LIN
;ENDFOLD
$BWDSTART = FALSE
LDAT_ACT=LCPDATP33
FDAT_ACT=FP50
BAS (#CP_PARAMS,2)
SET_CD_PARAMS (0)
LIN  XP50 C_DIS C_DIS
;ENDFOLD
;FOLD LIN P65 CONT Vel= 2 m/s CPDATP48 Tool[1] Base[1]   ;%{PE}
;FOLD Parameters ;%{h}
;Params IlfProvider=kukaroboter.basistech.inlineforms.movement.old; Kuka.IsGlobalPoint=False; Kuka.PointName=P65; Kuka.BlendingEnabled=True; Kuka.MoveDataName=CPDATP48; Kuka.VelocityPath=2; Kuka.CurrentCDSetIndex=0; Kuka.MovementParameterFieldEnabled=True; IlfCommand=LIN
;ENDFOLD
$BWDSTART = FALSE
LDAT_ACT=LCPDATP48
FDAT_ACT=FP65
BAS (#CP_PARAMS,2)
SET_CD_PARAMS (0)
LIN  XP65 C_DIS C_DIS
;ENDFOLD
END


DEF Zone_01_04()

;FOLD LIN P66 CONT Vel= 2 m/s CPDATP49 Tool[12] Base[1]   ;%{PE}
;FOLD Parameters ;%{h}
;Params IlfProvider=kukaroboter.basistech.inlineforms.movement.old; Kuka.IsGlobalPoint=False; Kuka.PointName=P66; Kuka.BlendingEnabled=True; Kuka.MoveDataName=CPDATP49; Kuka.VelocityPath=2; Kuka.CurrentCDSetIndex=0; Kuka.MovementParameterFieldEnabled=True; IlfCommand=LIN
;ENDFOLD
$BWDSTART = FALSE
LDAT_ACT=LCPDATP49
FDAT_ACT=FP66
BAS (#CP_PARAMS,2)
SET_CD_PARAMS (0)
LIN  XP66 C_DIS C_DIS
;ENDFOLD
;FOLD LIN P67 CONT Vel= 2 m/s CPDATP50 Tool[1] Base[1]   ;%{PE}
;FOLD Parameters ;%{h}
;Params IlfProvider=kukaroboter.basistech.inlineforms.movement.old; Kuka.IsGlobalPoint=False; Kuka.PointName=P67; Kuka.BlendingEnabled=True; Kuka.MoveDataName=CPDATP50; Kuka.VelocityPath=2; Kuka.CurrentCDSetIndex=0; Kuka.MovementParameterFieldEnabled=True; IlfCommand=LIN
;ENDFOLD
$BWDSTART = FALSE
LDAT_ACT=LCPDATP50
FDAT_ACT=FP67
BAS (#CP_PARAMS,2)
SET_CD_PARAMS (0)
LIN  XP67 C_DIS C_DIS
;ENDFOLD
;FOLD LIN P68 CONT Vel= 2 m/s CPDATP51 Tool[1] Base[1]   ;%{PE}
;FOLD Parameters ;%{h}
;Params IlfProvider=kukaroboter.basistech.inlineforms.movement.old; Kuka.IsGlobalPoint=False; Kuka.PointName=P68; Kuka.BlendingEnabled=True; Kuka.MoveDataName=CPDATP51; Kuka.VelocityPath=2; Kuka.CurrentCDSetIndex=0; Kuka.MovementParameterFieldEnabled=True; IlfCommand=LIN
;ENDFOLD
$BWDSTART = FALSE
LDAT_ACT=LCPDATP51
FDAT_ACT=FP68
BAS (#CP_PARAMS,2)
SET_CD_PARAMS (0)
LIN  XP68 C_DIS C_DIS
;ENDFOLD
;FOLD LIN P69 CONT Vel= 2 m/s CPDATP52 Tool[1] Base[1]   ;%{PE}
;FOLD Parameters ;%{h}
;Params IlfProvider=kukaroboter.basistech.inlineforms.movement.old; Kuka.IsGlobalPoint=False; Kuka.PointName=P69; Kuka.BlendingEnabled=True; Kuka.MoveDataName=CPDATP52; Kuka.VelocityPath=2; Kuka.CurrentCDSetIndex=0; Kuka.MovementParameterFieldEnabled=True; IlfCommand=LIN
;ENDFOLD
$BWDSTART = FALSE
LDAT_ACT=LCPDATP52
FDAT_ACT=FP69
BAS (#CP_PARAMS,2)
SET_CD_PARAMS (0)
LIN  XP69 C_DIS C_DIS
;ENDFOLD
;FOLD LIN P70 CONT Vel= 2 m/s CPDATP53 Tool[1] Base[1]   ;%{PE}
;FOLD Parameters ;%{h}
;Params IlfProvider=kukaroboter.basistech.inlineforms.movement.old; Kuka.IsGlobalPoint=False; Kuka.PointName=P70; Kuka.BlendingEnabled=True; Kuka.MoveDataName=CPDATP53; Kuka.VelocityPath=2; Kuka.CurrentCDSetIndex=0; Kuka.MovementParameterFieldEnabled=True; IlfCommand=LIN
;ENDFOLD
$BWDSTART = FALSE
LDAT_ACT=LCPDATP53
FDAT_ACT=FP70
BAS (#CP_PARAMS,2)
SET_CD_PARAMS (0)
LIN  XP70 C_DIS C_DIS
;ENDFOLD
;FOLD LIN P71 CONT Vel= 2 m/s CPDATP54 Tool[1] Base[1]   ;%{PE}
;FOLD Parameters ;%{h}
;Params IlfProvider=kukaroboter.basistech.inlineforms.movement.old; Kuka.IsGlobalPoint=False; Kuka.PointName=P71; Kuka.BlendingEnabled=True; Kuka.MoveDataName=CPDATP54; Kuka.VelocityPath=2; Kuka.CurrentCDSetIndex=0; Kuka.MovementParameterFieldEnabled=True; IlfCommand=LIN
;ENDFOLD
$BWDSTART = FALSE
LDAT_ACT=LCPDATP54
FDAT_ACT=FP71
BAS (#CP_PARAMS,2)
SET_CD_PARAMS (0)
LIN  XP71 C_DIS C_DIS
;ENDFOLD
;FOLD LIN P72 CONT Vel= 2 m/s CPDATP55 Tool[1] Base[1]   ;%{PE}
;FOLD Parameters ;%{h}
;Params IlfProvider=kukaroboter.basistech.inlineforms.movement.old; Kuka.IsGlobalPoint=False; Kuka.PointName=P72; Kuka.BlendingEnabled=True; Kuka.MoveDataName=CPDATP55; Kuka.VelocityPath=2; Kuka.CurrentCDSetIndex=0; Kuka.MovementParameterFieldEnabled=True; IlfCommand=LIN
;ENDFOLD
$BWDSTART = FALSE
LDAT_ACT=LCPDATP55
FDAT_ACT=FP72
BAS (#CP_PARAMS,2)
SET_CD_PARAMS (0)
LIN  XP72 C_DIS C_DIS
;ENDFOLD
;FOLD LIN P73 CONT Vel= 2 m/s CPDATP56 Tool[1] Base[1]   ;%{PE}
;FOLD Parameters ;%{h}
;Params IlfProvider=kukaroboter.basistech.inlineforms.movement.old; Kuka.IsGlobalPoint=False; Kuka.PointName=P73; Kuka.BlendingEnabled=True; Kuka.MoveDataName=CPDATP56; Kuka.VelocityPath=2; Kuka.CurrentCDSetIndex=0; Kuka.MovementParameterFieldEnabled=True; IlfCommand=LIN
;ENDFOLD
$BWDSTART = FALSE
LDAT_ACT=LCPDATP56
FDAT_ACT=FP73
BAS (#CP_PARAMS,2)
SET_CD_PARAMS (0)
LIN  XP73 C_DIS C_DIS
;ENDFOLD
;FOLD LIN P74 CONT Vel= 2 m/s CPDATP57 Tool[1] Base[1]   ;%{PE}
;FOLD Parameters ;%{h}
;Params IlfProvider=kukaroboter.basistech.inlineforms.movement.old; Kuka.IsGlobalPoint=False; Kuka.PointName=P74; Kuka.BlendingEnabled=True; Kuka.MoveDataName=CPDATP57; Kuka.VelocityPath=2; Kuka.CurrentCDSetIndex=0; Kuka.MovementParameterFieldEnabled=True; IlfCommand=LIN
;ENDFOLD
$BWDSTART = FALSE
LDAT_ACT=LCPDATP57
FDAT_ACT=FP74
BAS (#CP_PARAMS,2)
SET_CD_PARAMS (0)
LIN  XP74 C_DIS C_DIS
;ENDFOLD
;FOLD LIN P75 CONT Vel= 2 m/s CPDATP58 Tool[1] Base[1]   ;%{PE}
;FOLD Parameters ;%{h}
;Params IlfProvider=kukaroboter.basistech.inlineforms.movement.old; Kuka.IsGlobalPoint=False; Kuka.PointName=P75; Kuka.BlendingEnabled=True; Kuka.MoveDataName=CPDATP58; Kuka.VelocityPath=2; Kuka.CurrentCDSetIndex=0; Kuka.MovementParameterFieldEnabled=True; IlfCommand=LIN
;ENDFOLD
$BWDSTART = FALSE
LDAT_ACT=LCPDATP58
FDAT_ACT=FP75
BAS (#CP_PARAMS,2)
SET_CD_PARAMS (0)
LIN  XP75 C_DIS C_DIS
;ENDFOLD
;FOLD LIN P76 CONT Vel= 2 m/s CPDATP59 Tool[1] Base[1]   ;%{PE}
;FOLD Parameters ;%{h}
;Params IlfProvider=kukaroboter.basistech.inlineforms.movement.old; Kuka.IsGlobalPoint=False; Kuka.PointName=P76; Kuka.BlendingEnabled=True; Kuka.MoveDataName=CPDATP59; Kuka.VelocityPath=2; Kuka.CurrentCDSetIndex=0; Kuka.MovementParameterFieldEnabled=True; IlfCommand=LIN
;ENDFOLD
$BWDSTART = FALSE
LDAT_ACT=LCPDATP59
FDAT_ACT=FP76
BAS (#CP_PARAMS,2)
SET_CD_PARAMS (0)
LIN  XP76 C_DIS C_DIS
;ENDFOLD
;FOLD LIN P77 CONT Vel= 2 m/s CPDATP60 Tool[1] Base[1]   ;%{PE}
;FOLD Parameters ;%{h}
;Params IlfProvider=kukaroboter.basistech.inlineforms.movement.old; Kuka.IsGlobalPoint=False; Kuka.PointName=P77; Kuka.BlendingEnabled=True; Kuka.MoveDataName=CPDATP60; Kuka.VelocityPath=2; Kuka.CurrentCDSetIndex=0; Kuka.MovementParameterFieldEnabled=True; IlfCommand=LIN
;ENDFOLD
$BWDSTART = FALSE
LDAT_ACT=LCPDATP60
FDAT_ACT=FP77
BAS (#CP_PARAMS,2)
SET_CD_PARAMS (0)
LIN  XP77 C_DIS C_DIS
;ENDFOLD
;FOLD LIN P79 CONT Vel= 2 m/s CPDATP62 Tool[1] Base[1]   ;%{PE}
;FOLD Parameters ;%{h}
;Params IlfProvider=kukaroboter.basistech.inlineforms.movement.old; Kuka.IsGlobalPoint=False; Kuka.PointName=P79; Kuka.BlendingEnabled=True; Kuka.MoveDataName=CPDATP62; Kuka.VelocityPath=2; Kuka.CurrentCDSetIndex=0; Kuka.MovementParameterFieldEnabled=True; IlfCommand=LIN
;ENDFOLD
$BWDSTART = FALSE
LDAT_ACT=LCPDATP62
FDAT_ACT=FP79
BAS (#CP_PARAMS,2)
SET_CD_PARAMS (0)
LIN  XP79 C_DIS C_DIS
;ENDFOLD
;FOLD LIN P78 CONT Vel= 2 m/s CPDATP61 Tool[1] Base[1]   ;%{PE}
;FOLD Parameters ;%{h}
;Params IlfProvider=kukaroboter.basistech.inlineforms.movement.old; Kuka.IsGlobalPoint=False; Kuka.PointName=P78; Kuka.BlendingEnabled=True; Kuka.MoveDataName=CPDATP61; Kuka.VelocityPath=2; Kuka.CurrentCDSetIndex=0; Kuka.MovementParameterFieldEnabled=True; IlfCommand=LIN
;ENDFOLD
$BWDSTART = FALSE
LDAT_ACT=LCPDATP61
FDAT_ACT=FP78
BAS (#CP_PARAMS,2)
SET_CD_PARAMS (0)
LIN  XP78 C_DIS C_DIS
;ENDFOLD
;FOLD LIN P80 CONT Vel= 2 m/s CPDATP63 Tool[1] Base[1]   ;%{PE}
;FOLD Parameters ;%{h}
;Params IlfProvider=kukaroboter.basistech.inlineforms.movement.old; Kuka.IsGlobalPoint=False; Kuka.PointName=P80; Kuka.BlendingEnabled=True; Kuka.MoveDataName=CPDATP63; Kuka.VelocityPath=2; Kuka.CurrentCDSetIndex=0; Kuka.MovementParameterFieldEnabled=True; IlfCommand=LIN
;ENDFOLD
$BWDSTART = FALSE
LDAT_ACT=LCPDATP63
FDAT_ACT=FP80
BAS (#CP_PARAMS,2)
SET_CD_PARAMS (0)
LIN  XP80 C_DIS C_DIS
;ENDFOLD
;FOLD LIN P81 CONT Vel= 2 m/s CPDATP64 Tool[1] Base[1]   ;%{PE}
;FOLD Parameters ;%{h}
;Params IlfProvider=kukaroboter.basistech.inlineforms.movement.old; Kuka.IsGlobalPoint=False; Kuka.PointName=P81; Kuka.BlendingEnabled=True; Kuka.MoveDataName=CPDATP64; Kuka.VelocityPath=2; Kuka.CurrentCDSetIndex=0; Kuka.MovementParameterFieldEnabled=True; IlfCommand=LIN
;ENDFOLD
$BWDSTART = FALSE
LDAT_ACT=LCPDATP64
FDAT_ACT=FP81
BAS (#CP_PARAMS,2)
SET_CD_PARAMS (0)
LIN  XP81 C_DIS C_DIS
;ENDFOLD
;FOLD LIN P82 CONT Vel= 2 m/s CPDATP61 Tool[1] Base[1]   ;%{PE}
;FOLD Parameters ;%{h}
;Params IlfProvider=kukaroboter.basistech.inlineforms.movement.old; Kuka.IsGlobalPoint=False; Kuka.PointName=P82; Kuka.BlendingEnabled=True; Kuka.MoveDataName=CPDATP61; Kuka.VelocityPath=2; Kuka.CurrentCDSetIndex=0; Kuka.MovementParameterFieldEnabled=True; IlfCommand=LIN
;ENDFOLD
$BWDSTART = FALSE
LDAT_ACT=LCPDATP61
FDAT_ACT=FP82
BAS (#CP_PARAMS,2)
SET_CD_PARAMS (0)
LIN  XP82 C_DIS C_DIS
;ENDFOLD
END


DEF Zone_01_05()

;FOLD LIN P83 CONT Vel= 2 m/s CPDATP65 Tool[11] Base[1]   ;%{PE}
;FOLD Parameters ;%{h}
;Params IlfProvider=kukaroboter.basistech.inlineforms.movement.old; Kuka.IsGlobalPoint=False; Kuka.PointName=P83; Kuka.BlendingEnabled=True; Kuka.MoveDataName=CPDATP65; Kuka.VelocityPath=2; Kuka.CurrentCDSetIndex=0; Kuka.MovementParameterFieldEnabled=True; IlfCommand=LIN
;ENDFOLD
$BWDSTART = FALSE
LDAT_ACT=LCPDATP65
FDAT_ACT=FP83
BAS (#CP_PARAMS,2)
SET_CD_PARAMS (0)
LIN  XP83 C_DIS C_DIS
;ENDFOLD
;FOLD LIN P84 CONT Vel= 2 m/s CPDATP66 Tool[11] Base[1]   ;%{PE}
;FOLD Parameters ;%{h}
;Params IlfProvider=kukaroboter.basistech.inlineforms.movement.old; Kuka.IsGlobalPoint=False; Kuka.PointName=P84; Kuka.BlendingEnabled=True; Kuka.MoveDataName=CPDATP66; Kuka.VelocityPath=2; Kuka.CurrentCDSetIndex=0; Kuka.MovementParameterFieldEnabled=True; IlfCommand=LIN
;ENDFOLD
$BWDSTART = FALSE
LDAT_ACT=LCPDATP66
FDAT_ACT=FP84
BAS (#CP_PARAMS,2)
SET_CD_PARAMS (0)
LIN  XP84 C_DIS C_DIS
;ENDFOLD
;FOLD LIN P85 CONT Vel= 2 m/s CPDATP67 Tool[11] Base[1]   ;%{PE}
;FOLD Parameters ;%{h}
;Params IlfProvider=kukaroboter.basistech.inlineforms.movement.old; Kuka.IsGlobalPoint=False; Kuka.PointName=P85; Kuka.BlendingEnabled=True; Kuka.MoveDataName=CPDATP67; Kuka.VelocityPath=2; Kuka.CurrentCDSetIndex=0; Kuka.MovementParameterFieldEnabled=True; IlfCommand=LIN
;ENDFOLD
$BWDSTART = FALSE
LDAT_ACT=LCPDATP67
FDAT_ACT=FP85
BAS (#CP_PARAMS,2)
SET_CD_PARAMS (0)
LIN  XP85 C_DIS C_DIS
;ENDFOLD
;FOLD LIN P86 CONT Vel= 2 m/s CPDATP68 Tool[11] Base[1]   ;%{PE}
;FOLD Parameters ;%{h}
;Params IlfProvider=kukaroboter.basistech.inlineforms.movement.old; Kuka.IsGlobalPoint=False; Kuka.PointName=P86; Kuka.BlendingEnabled=True; Kuka.MoveDataName=CPDATP68; Kuka.VelocityPath=2; Kuka.CurrentCDSetIndex=0; Kuka.MovementParameterFieldEnabled=True; IlfCommand=LIN
;ENDFOLD
$BWDSTART = FALSE
LDAT_ACT=LCPDATP68
FDAT_ACT=FP86
BAS (#CP_PARAMS,2)
SET_CD_PARAMS (0)
LIN  XP86 C_DIS C_DIS
;ENDFOLD
END


DEF Zone_01_06()

;FOLD LIN P87 CONT Vel= 2 m/s CPDATP69 Tool[1] Base[1]   ;%{PE}
;FOLD Parameters ;%{h}
;Params IlfProvider=kukaroboter.basistech.inlineforms.movement.old; Kuka.IsGlobalPoint=False; Kuka.PointName=P87; Kuka.BlendingEnabled=True; Kuka.MoveDataName=CPDATP69; Kuka.VelocityPath=2; Kuka.CurrentCDSetIndex=0; Kuka.MovementParameterFieldEnabled=True; IlfCommand=LIN
;ENDFOLD
$BWDSTART = FALSE
LDAT_ACT=LCPDATP69
FDAT_ACT=FP87
BAS (#CP_PARAMS,2)
SET_CD_PARAMS (0)
LIN  XP87 C_DIS C_DIS
;ENDFOLD
;FOLD LIN P88 CONT Vel= 2 m/s CPDATP70 Tool[1] Base[1]   ;%{PE}
;FOLD Parameters ;%{h}
;Params IlfProvider=kukaroboter.basistech.inlineforms.movement.old; Kuka.IsGlobalPoint=False; Kuka.PointName=P88; Kuka.BlendingEnabled=True; Kuka.MoveDataName=CPDATP70; Kuka.VelocityPath=2; Kuka.CurrentCDSetIndex=0; Kuka.MovementParameterFieldEnabled=True; IlfCommand=LIN
;ENDFOLD
$BWDSTART = FALSE
LDAT_ACT=LCPDATP70
FDAT_ACT=FP88
BAS (#CP_PARAMS,2)
SET_CD_PARAMS (0)
LIN  XP88 C_DIS C_DIS
;ENDFOLD
END


DEF Zone_01_07()

;FOLD LIN P89 CONT Vel= 2 m/s CPDATP71 Tool[12] Base[1]   ;%{PE}
;FOLD Parameters ;%{h}
;Params IlfProvider=kukaroboter.basistech.inlineforms.movement.old; Kuka.IsGlobalPoint=False; Kuka.PointName=P89; Kuka.BlendingEnabled=True; Kuka.MoveDataName=CPDATP71; Kuka.VelocityPath=2; Kuka.CurrentCDSetIndex=0; Kuka.MovementParameterFieldEnabled=True; IlfCommand=LIN
;ENDFOLD
$BWDSTART = FALSE
LDAT_ACT=LCPDATP71
FDAT_ACT=FP89
BAS (#CP_PARAMS,2)
SET_CD_PARAMS (0)
LIN  XP89 C_DIS C_DIS
;ENDFOLD
;FOLD LIN P90 CONT Vel= 2 m/s CPDATP72 Tool[12] Base[1]   ;%{PE}
;FOLD Parameters ;%{h}
;Params IlfProvider=kukaroboter.basistech.inlineforms.movement.old; Kuka.IsGlobalPoint=False; Kuka.PointName=P90; Kuka.BlendingEnabled=True; Kuka.MoveDataName=CPDATP72; Kuka.VelocityPath=2; Kuka.CurrentCDSetIndex=0; Kuka.MovementParameterFieldEnabled=True; IlfCommand=LIN
;ENDFOLD
$BWDSTART = FALSE
LDAT_ACT=LCPDATP72
FDAT_ACT=FP90
BAS (#CP_PARAMS,2)
SET_CD_PARAMS (0)
LIN  XP90 C_DIS C_DIS
;ENDFOLD
;FOLD LIN P91 CONT Vel= 2 m/s CPDATP73 Tool[12] Base[1]   ;%{PE}
;FOLD Parameters ;%{h}
;Params IlfProvider=kukaroboter.basistech.inlineforms.movement.old; Kuka.IsGlobalPoint=False; Kuka.PointName=P91; Kuka.BlendingEnabled=True; Kuka.MoveDataName=CPDATP73; Kuka.VelocityPath=2; Kuka.CurrentCDSetIndex=0; Kuka.MovementParameterFieldEnabled=True; IlfCommand=LIN
;ENDFOLD
$BWDSTART = FALSE
LDAT_ACT=LCPDATP73
FDAT_ACT=FP91
BAS (#CP_PARAMS,2)
SET_CD_PARAMS (0)
LIN  XP91 C_DIS C_DIS
;ENDFOLD
END


DEF Zone_02_01()

;FOLD LIN P94 CONT Vel= 2 m/s CPDATP74 Tool[13] Base[1]   ;%{PE}
;FOLD Parameters ;%{h}
;Params IlfProvider=kukaroboter.basistech.inlineforms.movement.old; Kuka.IsGlobalPoint=False; Kuka.PointName=P94; Kuka.BlendingEnabled=True; Kuka.MoveDataName=CPDATP74; Kuka.VelocityPath=2; Kuka.CurrentCDSetIndex=0; Kuka.MovementParameterFieldEnabled=True; IlfCommand=LIN
;ENDFOLD
$BWDSTART = FALSE
LDAT_ACT=LCPDATP74
FDAT_ACT=FP94
BAS (#CP_PARAMS,2)
SET_CD_PARAMS (0)
LIN  XP94 C_DIS C_DIS
;ENDFOLD
;FOLD LIN P95 CONT Vel= 2 m/s CPDATP75 Tool[13] Base[1]   ;%{PE}
;FOLD Parameters ;%{h}
;Params IlfProvider=kukaroboter.basistech.inlineforms.movement.old; Kuka.IsGlobalPoint=False; Kuka.PointName=P95; Kuka.BlendingEnabled=True; Kuka.MoveDataName=CPDATP75; Kuka.VelocityPath=2; Kuka.CurrentCDSetIndex=0; Kuka.MovementParameterFieldEnabled=True; IlfCommand=LIN
;ENDFOLD
$BWDSTART = FALSE
LDAT_ACT=LCPDATP75
FDAT_ACT=FP95
BAS (#CP_PARAMS,2)
SET_CD_PARAMS (0)
LIN  XP95 C_DIS C_DIS
;ENDFOLD
;FOLD LIN P96 CONT Vel= 2 m/s CPDATP76 Tool[13] Base[1]   ;%{PE}
;FOLD Parameters ;%{h}
;Params IlfProvider=kukaroboter.basistech.inlineforms.movement.old; Kuka.IsGlobalPoint=False; Kuka.PointName=P96; Kuka.BlendingEnabled=True; Kuka.MoveDataName=CPDATP76; Kuka.VelocityPath=2; Kuka.CurrentCDSetIndex=0; Kuka.MovementParameterFieldEnabled=True; IlfCommand=LIN
;ENDFOLD
$BWDSTART = FALSE
LDAT_ACT=LCPDATP76
FDAT_ACT=FP96
BAS (#CP_PARAMS,2)
SET_CD_PARAMS (0)
LIN  XP96 C_DIS C_DIS
;ENDFOLD
;FOLD LIN P97 CONT Vel= 2 m/s CPDATP77 Tool[13] Base[1]   ;%{PE}
;FOLD Parameters ;%{h}
;Params IlfProvider=kukaroboter.basistech.inlineforms.movement.old; Kuka.IsGlobalPoint=False; Kuka.PointName=P97; Kuka.BlendingEnabled=True; Kuka.MoveDataName=CPDATP77; Kuka.VelocityPath=2; Kuka.CurrentCDSetIndex=0; Kuka.MovementParameterFieldEnabled=True; IlfCommand=LIN
;ENDFOLD
$BWDSTART = FALSE
LDAT_ACT=LCPDATP77
FDAT_ACT=FP97
BAS (#CP_PARAMS,2)
SET_CD_PARAMS (0)
LIN  XP97 C_DIS C_DIS
;ENDFOLD
END


DEF Zone_02_02()

;FOLD LIN P98 CONT Vel= 2 m/s CPDATP78 Tool[13] Base[1]   ;%{PE}
;FOLD Parameters ;%{h}
;Params IlfProvider=kukaroboter.basistech.inlineforms.movement.old; Kuka.IsGlobalPoint=False; Kuka.PointName=P98; Kuka.BlendingEnabled=True; Kuka.MoveDataName=CPDATP78; Kuka.VelocityPath=2; Kuka.CurrentCDSetIndex=0; Kuka.MovementParameterFieldEnabled=True; IlfCommand=LIN
;ENDFOLD
$BWDSTART = FALSE
LDAT_ACT=LCPDATP78
FDAT_ACT=FP98
BAS (#CP_PARAMS,2)
SET_CD_PARAMS (0)
LIN  XP98 C_DIS C_DIS
;ENDFOLD
;FOLD LIN P103 CONT Vel= 2 m/s CPDATP83 Tool[13] Base[1]   ;%{PE}
;FOLD Parameters ;%{h}
;Params IlfProvider=kukaroboter.basistech.inlineforms.movement.old; Kuka.IsGlobalPoint=False; Kuka.PointName=P103; Kuka.BlendingEnabled=True; Kuka.MoveDataName=CPDATP83; Kuka.VelocityPath=2; Kuka.CurrentCDSetIndex=0; Kuka.MovementParameterFieldEnabled=True; IlfCommand=LIN
;ENDFOLD
$BWDSTART = FALSE
LDAT_ACT=LCPDATP83
FDAT_ACT=FP103
BAS (#CP_PARAMS,2)
SET_CD_PARAMS (0)
LIN  XP103 C_DIS C_DIS
;ENDFOLD
;FOLD LIN P104 CONT Vel= 2 m/s CPDATP84 Tool[2] Base[1]   ;%{PE}
;FOLD Parameters ;%{h}
;Params IlfProvider=kukaroboter.basistech.inlineforms.movement.old; Kuka.IsGlobalPoint=False; Kuka.PointName=P104; Kuka.BlendingEnabled=True; Kuka.MoveDataName=CPDATP84; Kuka.VelocityPath=2; Kuka.CurrentCDSetIndex=0; Kuka.MovementParameterFieldEnabled=True; IlfCommand=LIN
;ENDFOLD
$BWDSTART = FALSE
LDAT_ACT=LCPDATP84
FDAT_ACT=FP104
BAS (#CP_PARAMS,2)
SET_CD_PARAMS (0)
LIN  XP104 C_DIS C_DIS
;ENDFOLD
;FOLD LIN P99 CONT Vel= 2 m/s CPDATP79 Tool[2] Base[1]   ;%{PE}
;FOLD Parameters ;%{h}
;Params IlfProvider=kukaroboter.basistech.inlineforms.movement.old; Kuka.IsGlobalPoint=False; Kuka.PointName=P99; Kuka.BlendingEnabled=True; Kuka.MoveDataName=CPDATP79; Kuka.VelocityPath=2; Kuka.CurrentCDSetIndex=0; Kuka.MovementParameterFieldEnabled=True; IlfCommand=LIN
;ENDFOLD
$BWDSTART = FALSE
LDAT_ACT=LCPDATP79
FDAT_ACT=FP99
BAS (#CP_PARAMS,2)
SET_CD_PARAMS (0)
LIN  XP99 C_DIS C_DIS
;ENDFOLD
;FOLD LIN P100 CONT Vel= 2 m/s CPDATP80 Tool[2] Base[1]   ;%{PE}
;FOLD Parameters ;%{h}
;Params IlfProvider=kukaroboter.basistech.inlineforms.movement.old; Kuka.IsGlobalPoint=False; Kuka.PointName=P100; Kuka.BlendingEnabled=True; Kuka.MoveDataName=CPDATP80; Kuka.VelocityPath=2; Kuka.CurrentCDSetIndex=0; Kuka.MovementParameterFieldEnabled=True; IlfCommand=LIN
;ENDFOLD
$BWDSTART = FALSE
LDAT_ACT=LCPDATP80
FDAT_ACT=FP100
BAS (#CP_PARAMS,2)
SET_CD_PARAMS (0)
LIN  XP100 C_DIS C_DIS
;ENDFOLD
;FOLD LIN P105 CONT Vel= 2 m/s CPDATP85 Tool[2] Base[1]   ;%{PE}
;FOLD Parameters ;%{h}
;Params IlfProvider=kukaroboter.basistech.inlineforms.movement.old; Kuka.IsGlobalPoint=False; Kuka.PointName=P105; Kuka.BlendingEnabled=True; Kuka.MoveDataName=CPDATP85; Kuka.VelocityPath=2; Kuka.CurrentCDSetIndex=0; Kuka.MovementParameterFieldEnabled=True; IlfCommand=LIN
;ENDFOLD
$BWDSTART = FALSE
LDAT_ACT=LCPDATP85
FDAT_ACT=FP105
BAS (#CP_PARAMS,2)
SET_CD_PARAMS (0)
LIN  XP105 C_DIS C_DIS
;ENDFOLD
;FOLD LIN P106 CONT Vel= 2 m/s CPDATP86 Tool[2] Base[1]   ;%{PE}
;FOLD Parameters ;%{h}
;Params IlfProvider=kukaroboter.basistech.inlineforms.movement.old; Kuka.IsGlobalPoint=False; Kuka.PointName=P106; Kuka.BlendingEnabled=True; Kuka.MoveDataName=CPDATP86; Kuka.VelocityPath=2; Kuka.CurrentCDSetIndex=0; Kuka.MovementParameterFieldEnabled=True; IlfCommand=LIN
;ENDFOLD
$BWDSTART = FALSE
LDAT_ACT=LCPDATP86
FDAT_ACT=FP106
BAS (#CP_PARAMS,2)
SET_CD_PARAMS (0)
LIN  XP106 C_DIS C_DIS
;ENDFOLD
;FOLD LIN P101 CONT Vel= 2 m/s CPDATP81 Tool[2] Base[1]   ;%{PE}
;FOLD Parameters ;%{h}
;Params IlfProvider=kukaroboter.basistech.inlineforms.movement.old; Kuka.IsGlobalPoint=False; Kuka.PointName=P101; Kuka.BlendingEnabled=True; Kuka.MoveDataName=CPDATP81; Kuka.VelocityPath=2; Kuka.CurrentCDSetIndex=0; Kuka.MovementParameterFieldEnabled=True; IlfCommand=LIN
;ENDFOLD
$BWDSTART = FALSE
LDAT_ACT=LCPDATP81
FDAT_ACT=FP101
BAS (#CP_PARAMS,2)
SET_CD_PARAMS (0)
LIN  XP101 C_DIS C_DIS
;ENDFOLD
;FOLD LIN P102 CONT Vel= 2 m/s CPDATP82 Tool[2] Base[1]   ;%{PE}
;FOLD Parameters ;%{h}
;Params IlfProvider=kukaroboter.basistech.inlineforms.movement.old; Kuka.IsGlobalPoint=False; Kuka.PointName=P102; Kuka.BlendingEnabled=True; Kuka.MoveDataName=CPDATP82; Kuka.VelocityPath=2; Kuka.CurrentCDSetIndex=0; Kuka.MovementParameterFieldEnabled=True; IlfCommand=LIN
;ENDFOLD
$BWDSTART = FALSE
LDAT_ACT=LCPDATP82
FDAT_ACT=FP102
BAS (#CP_PARAMS,2)
SET_CD_PARAMS (0)
LIN  XP102 C_DIS C_DIS
;ENDFOLD
;FOLD LIN P107 CONT Vel= 2 m/s CPDATP87 Tool[2] Base[1]   ;%{PE}
;FOLD Parameters ;%{h}
;Params IlfProvider=kukaroboter.basistech.inlineforms.movement.old; Kuka.IsGlobalPoint=False; Kuka.PointName=P107; Kuka.BlendingEnabled=True; Kuka.MoveDataName=CPDATP87; Kuka.VelocityPath=2; Kuka.CurrentCDSetIndex=0; Kuka.MovementParameterFieldEnabled=True; IlfCommand=LIN
;ENDFOLD
$BWDSTART = FALSE
LDAT_ACT=LCPDATP87
FDAT_ACT=FP107
BAS (#CP_PARAMS,2)
SET_CD_PARAMS (0)
LIN  XP107 C_DIS C_DIS
;ENDFOLD
END


DEF Zone_02_03()

;FOLD LIN P108 CONT Vel= 2 m/s CPDATP88 Tool[14] Base[1]   ;%{PE}
;FOLD Parameters ;%{h}
;Params IlfProvider=kukaroboter.basistech.inlineforms.movement.old; Kuka.IsGlobalPoint=False; Kuka.PointName=P108; Kuka.BlendingEnabled=True; Kuka.MoveDataName=CPDATP88; Kuka.VelocityPath=2; Kuka.CurrentCDSetIndex=0; Kuka.MovementParameterFieldEnabled=True; IlfCommand=LIN
;ENDFOLD
$BWDSTART = FALSE
LDAT_ACT=LCPDATP88
FDAT_ACT=FP108
BAS (#CP_PARAMS,2)
SET_CD_PARAMS (0)
LIN  XP108 C_DIS C_DIS
;ENDFOLD
;FOLD LIN P109 CONT Vel= 2 m/s CPDATP89 Tool[13] Base[1]   ;%{PE}
;FOLD Parameters ;%{h}
;Params IlfProvider=kukaroboter.basistech.inlineforms.movement.old; Kuka.IsGlobalPoint=False; Kuka.PointName=P109; Kuka.BlendingEnabled=True; Kuka.MoveDataName=CPDATP89; Kuka.VelocityPath=2; Kuka.CurrentCDSetIndex=0; Kuka.MovementParameterFieldEnabled=True; IlfCommand=LIN
;ENDFOLD
$BWDSTART = FALSE
LDAT_ACT=LCPDATP89
FDAT_ACT=FP109
BAS (#CP_PARAMS,2)
SET_CD_PARAMS (0)
LIN  XP109 C_DIS C_DIS
;ENDFOLD
;FOLD LIN P119 CONT Vel= 2 m/s CPDATP99 Tool[13] Base[1]   ;%{PE}
;FOLD Parameters ;%{h}
;Params IlfProvider=kukaroboter.basistech.inlineforms.movement.old; Kuka.IsGlobalPoint=False; Kuka.PointName=P119; Kuka.BlendingEnabled=True; Kuka.MoveDataName=CPDATP99; Kuka.VelocityPath=2; Kuka.CurrentCDSetIndex=0; Kuka.MovementParameterFieldEnabled=True; IlfCommand=LIN
;ENDFOLD
$BWDSTART = FALSE
LDAT_ACT=LCPDATP99
FDAT_ACT=FP119
BAS (#CP_PARAMS,2)
SET_CD_PARAMS (0)
LIN  XP119 C_DIS C_DIS
;ENDFOLD
;FOLD LIN P110 CONT Vel= 2 m/s CPDATP90 Tool[14] Base[1]   ;%{PE}
;FOLD Parameters ;%{h}
;Params IlfProvider=kukaroboter.basistech.inlineforms.movement.old; Kuka.IsGlobalPoint=False; Kuka.PointName=P110; Kuka.BlendingEnabled=True; Kuka.MoveDataName=CPDATP90; Kuka.VelocityPath=2; Kuka.CurrentCDSetIndex=0; Kuka.MovementParameterFieldEnabled=True; IlfCommand=LIN
;ENDFOLD
$BWDSTART = FALSE
LDAT_ACT=LCPDATP90
FDAT_ACT=FP110
BAS (#CP_PARAMS,2)
SET_CD_PARAMS (0)
LIN  XP110 C_DIS C_DIS
;ENDFOLD
;FOLD LIN P111 CONT Vel= 2 m/s CPDATP91 Tool[14] Base[1]   ;%{PE}
;FOLD Parameters ;%{h}
;Params IlfProvider=kukaroboter.basistech.inlineforms.movement.old; Kuka.IsGlobalPoint=False; Kuka.PointName=P111; Kuka.BlendingEnabled=True; Kuka.MoveDataName=CPDATP91; Kuka.VelocityPath=2; Kuka.CurrentCDSetIndex=0; Kuka.MovementParameterFieldEnabled=True; IlfCommand=LIN
;ENDFOLD
$BWDSTART = FALSE
LDAT_ACT=LCPDATP91
FDAT_ACT=FP111
BAS (#CP_PARAMS,2)
SET_CD_PARAMS (0)
LIN  XP111 C_DIS C_DIS
;ENDFOLD
;FOLD LIN P120 CONT Vel= 2 m/s CPDATP100 Tool[13] Base[1]   ;%{PE}
;FOLD Parameters ;%{h}
;Params IlfProvider=kukaroboter.basistech.inlineforms.movement.old; Kuka.IsGlobalPoint=False; Kuka.PointName=P120; Kuka.BlendingEnabled=True; Kuka.MoveDataName=CPDATP100; Kuka.VelocityPath=2; Kuka.CurrentCDSetIndex=0; Kuka.MovementParameterFieldEnabled=True; IlfCommand=LIN
;ENDFOLD
$BWDSTART = FALSE
LDAT_ACT=LCPDATP100
FDAT_ACT=FP120
BAS (#CP_PARAMS,2)
SET_CD_PARAMS (0)
LIN  XP120 C_DIS C_DIS
;ENDFOLD
;FOLD LIN P121 CONT Vel= 2 m/s CPDATP101 Tool[13] Base[1]   ;%{PE}
;FOLD Parameters ;%{h}
;Params IlfProvider=kukaroboter.basistech.inlineforms.movement.old; Kuka.IsGlobalPoint=False; Kuka.PointName=P121; Kuka.BlendingEnabled=True; Kuka.MoveDataName=CPDATP101; Kuka.VelocityPath=2; Kuka.CurrentCDSetIndex=0; Kuka.MovementParameterFieldEnabled=True; IlfCommand=LIN
;ENDFOLD
$BWDSTART = FALSE
LDAT_ACT=LCPDATP101
FDAT_ACT=FP121
BAS (#CP_PARAMS,2)
SET_CD_PARAMS (0)
LIN  XP121 C_DIS C_DIS
;ENDFOLD
;FOLD LIN P112 CONT Vel= 2 m/s CPDATP92 Tool[14] Base[1]   ;%{PE}
;FOLD Parameters ;%{h}
;Params IlfProvider=kukaroboter.basistech.inlineforms.movement.old; Kuka.IsGlobalPoint=False; Kuka.PointName=P112; Kuka.BlendingEnabled=True; Kuka.MoveDataName=CPDATP92; Kuka.VelocityPath=2; Kuka.CurrentCDSetIndex=0; Kuka.MovementParameterFieldEnabled=True; IlfCommand=LIN
;ENDFOLD
$BWDSTART = FALSE
LDAT_ACT=LCPDATP92
FDAT_ACT=FP112
BAS (#CP_PARAMS,2)
SET_CD_PARAMS (0)
LIN  XP112 C_DIS C_DIS
;ENDFOLD
;FOLD LIN P113 CONT Vel= 2 m/s CPDATP93 Tool[14] Base[1]   ;%{PE}
;FOLD Parameters ;%{h}
;Params IlfProvider=kukaroboter.basistech.inlineforms.movement.old; Kuka.IsGlobalPoint=False; Kuka.PointName=P113; Kuka.BlendingEnabled=True; Kuka.MoveDataName=CPDATP93; Kuka.VelocityPath=2; Kuka.CurrentCDSetIndex=0; Kuka.MovementParameterFieldEnabled=True; IlfCommand=LIN
;ENDFOLD
$BWDSTART = FALSE
LDAT_ACT=LCPDATP93
FDAT_ACT=FP113
BAS (#CP_PARAMS,2)
SET_CD_PARAMS (0)
LIN  XP113 C_DIS C_DIS
;ENDFOLD
;FOLD LIN P122 CONT Vel= 2 m/s CPDATP102 Tool[13] Base[1]   ;%{PE}
;FOLD Parameters ;%{h}
;Params IlfProvider=kukaroboter.basistech.inlineforms.movement.old; Kuka.IsGlobalPoint=False; Kuka.PointName=P122; Kuka.BlendingEnabled=True; Kuka.MoveDataName=CPDATP102; Kuka.VelocityPath=2; Kuka.CurrentCDSetIndex=0; Kuka.MovementParameterFieldEnabled=True; IlfCommand=LIN
;ENDFOLD
$BWDSTART = FALSE
LDAT_ACT=LCPDATP102
FDAT_ACT=FP122
BAS (#CP_PARAMS,2)
SET_CD_PARAMS (0)
LIN  XP122 C_DIS C_DIS
;ENDFOLD
;FOLD LIN P123 CONT Vel= 2 m/s CPDATP103 Tool[13] Base[1]   ;%{PE}
;FOLD Parameters ;%{h}
;Params IlfProvider=kukaroboter.basistech.inlineforms.movement.old; Kuka.IsGlobalPoint=False; Kuka.PointName=P123; Kuka.BlendingEnabled=True; Kuka.MoveDataName=CPDATP103; Kuka.VelocityPath=2; Kuka.CurrentCDSetIndex=0; Kuka.MovementParameterFieldEnabled=True; IlfCommand=LIN
;ENDFOLD
$BWDSTART = FALSE
LDAT_ACT=LCPDATP103
FDAT_ACT=FP123
BAS (#CP_PARAMS,2)
SET_CD_PARAMS (0)
LIN  XP123 C_DIS C_DIS
;ENDFOLD
;FOLD LIN P114 CONT Vel= 2 m/s CPDATP94 Tool[14] Base[1]   ;%{PE}
;FOLD Parameters ;%{h}
;Params IlfProvider=kukaroboter.basistech.inlineforms.movement.old; Kuka.IsGlobalPoint=False; Kuka.PointName=P114; Kuka.BlendingEnabled=True; Kuka.MoveDataName=CPDATP94; Kuka.VelocityPath=2; Kuka.CurrentCDSetIndex=0; Kuka.MovementParameterFieldEnabled=True; IlfCommand=LIN
;ENDFOLD
$BWDSTART = FALSE
LDAT_ACT=LCPDATP94
FDAT_ACT=FP114
BAS (#CP_PARAMS,2)
SET_CD_PARAMS (0)
LIN  XP114 C_DIS C_DIS
;ENDFOLD
;FOLD LIN P115 CONT Vel= 2 m/s CPDATP95 Tool[14] Base[1]   ;%{PE}
;FOLD Parameters ;%{h}
;Params IlfProvider=kukaroboter.basistech.inlineforms.movement.old; Kuka.IsGlobalPoint=False; Kuka.PointName=P115; Kuka.BlendingEnabled=True; Kuka.MoveDataName=CPDATP95; Kuka.VelocityPath=2; Kuka.CurrentCDSetIndex=0; Kuka.MovementParameterFieldEnabled=True; IlfCommand=LIN
;ENDFOLD
$BWDSTART = FALSE
LDAT_ACT=LCPDATP95
FDAT_ACT=FP115
BAS (#CP_PARAMS,2)
SET_CD_PARAMS (0)
LIN  XP115 C_DIS C_DIS
;ENDFOLD
;FOLD LIN P124 CONT Vel= 2 m/s CPDATP104 Tool[13] Base[1]   ;%{PE}
;FOLD Parameters ;%{h}
;Params IlfProvider=kukaroboter.basistech.inlineforms.movement.old; Kuka.IsGlobalPoint=False; Kuka.PointName=P124; Kuka.BlendingEnabled=True; Kuka.MoveDataName=CPDATP104; Kuka.VelocityPath=2; Kuka.CurrentCDSetIndex=0; Kuka.MovementParameterFieldEnabled=True; IlfCommand=LIN
;ENDFOLD
$BWDSTART = FALSE
LDAT_ACT=LCPDATP104
FDAT_ACT=FP124
BAS (#CP_PARAMS,2)
SET_CD_PARAMS (0)
LIN  XP124 C_DIS C_DIS
;ENDFOLD
;FOLD LIN P125 CONT Vel= 2 m/s CPDATP105 Tool[13] Base[1]   ;%{PE}
;FOLD Parameters ;%{h}
;Params IlfProvider=kukaroboter.basistech.inlineforms.movement.old; Kuka.IsGlobalPoint=False; Kuka.PointName=P125; Kuka.BlendingEnabled=True; Kuka.MoveDataName=CPDATP105; Kuka.VelocityPath=2; Kuka.CurrentCDSetIndex=0; Kuka.MovementParameterFieldEnabled=True; IlfCommand=LIN
;ENDFOLD
$BWDSTART = FALSE
LDAT_ACT=LCPDATP105
FDAT_ACT=FP125
BAS (#CP_PARAMS,2)
SET_CD_PARAMS (0)
LIN  XP125 C_DIS C_DIS
;ENDFOLD
;FOLD LIN P116 CONT Vel= 2 m/s CPDATP96 Tool[14] Base[1]   ;%{PE}
;FOLD Parameters ;%{h}
;Params IlfProvider=kukaroboter.basistech.inlineforms.movement.old; Kuka.IsGlobalPoint=False; Kuka.PointName=P116; Kuka.BlendingEnabled=True; Kuka.MoveDataName=CPDATP96; Kuka.VelocityPath=2; Kuka.CurrentCDSetIndex=0; Kuka.MovementParameterFieldEnabled=True; IlfCommand=LIN
;ENDFOLD
$BWDSTART = FALSE
LDAT_ACT=LCPDATP96
FDAT_ACT=FP116
BAS (#CP_PARAMS,2)
SET_CD_PARAMS (0)
LIN  XP116 C_DIS C_DIS
;ENDFOLD
;FOLD LIN P117 CONT Vel= 2 m/s CPDATP97 Tool[14] Base[1]   ;%{PE}
;FOLD Parameters ;%{h}
;Params IlfProvider=kukaroboter.basistech.inlineforms.movement.old; Kuka.IsGlobalPoint=False; Kuka.PointName=P117; Kuka.BlendingEnabled=True; Kuka.MoveDataName=CPDATP97; Kuka.VelocityPath=2; Kuka.CurrentCDSetIndex=0; Kuka.MovementParameterFieldEnabled=True; IlfCommand=LIN
;ENDFOLD
$BWDSTART = FALSE
LDAT_ACT=LCPDATP97
FDAT_ACT=FP117
BAS (#CP_PARAMS,2)
SET_CD_PARAMS (0)
LIN  XP117 C_DIS C_DIS
;ENDFOLD
;FOLD LIN P126 CONT Vel= 2 m/s CPDATP106 Tool[13] Base[1]   ;%{PE}
;FOLD Parameters ;%{h}
;Params IlfProvider=kukaroboter.basistech.inlineforms.movement.old; Kuka.IsGlobalPoint=False; Kuka.PointName=P126; Kuka.BlendingEnabled=True; Kuka.MoveDataName=CPDATP106; Kuka.VelocityPath=2; Kuka.CurrentCDSetIndex=0; Kuka.MovementParameterFieldEnabled=True; IlfCommand=LIN
;ENDFOLD
$BWDSTART = FALSE
LDAT_ACT=LCPDATP106
FDAT_ACT=FP126
BAS (#CP_PARAMS,2)
SET_CD_PARAMS (0)
LIN  XP126 C_DIS C_DIS
;ENDFOLD
;FOLD LIN P127 CONT Vel= 2 m/s CPDATP107 Tool[13] Base[1]   ;%{PE}
;FOLD Parameters ;%{h}
;Params IlfProvider=kukaroboter.basistech.inlineforms.movement.old; Kuka.IsGlobalPoint=False; Kuka.PointName=P127; Kuka.BlendingEnabled=True; Kuka.MoveDataName=CPDATP107; Kuka.VelocityPath=2; Kuka.CurrentCDSetIndex=0; Kuka.MovementParameterFieldEnabled=True; IlfCommand=LIN
;ENDFOLD
$BWDSTART = FALSE
LDAT_ACT=LCPDATP107
FDAT_ACT=FP127
BAS (#CP_PARAMS,2)
SET_CD_PARAMS (0)
LIN  XP127 C_DIS C_DIS
;ENDFOLD
;FOLD LIN P118 CONT Vel= 2 m/s CPDATP98 Tool[14] Base[1]   ;%{PE}
;FOLD Parameters ;%{h}
;Params IlfProvider=kukaroboter.basistech.inlineforms.movement.old; Kuka.IsGlobalPoint=False; Kuka.PointName=P118; Kuka.BlendingEnabled=True; Kuka.MoveDataName=CPDATP98; Kuka.VelocityPath=2; Kuka.CurrentCDSetIndex=0; Kuka.MovementParameterFieldEnabled=True; IlfCommand=LIN
;ENDFOLD
$BWDSTART = FALSE
LDAT_ACT=LCPDATP98
FDAT_ACT=FP118
BAS (#CP_PARAMS,2)
SET_CD_PARAMS (0)
LIN  XP118 C_DIS C_DIS
;ENDFOLD
;FOLD LIN P130 CONT Vel= 2 m/s CPDATP110 Tool[2] Base[1]   ;%{PE}
;FOLD Parameters ;%{h}
;Params IlfProvider=kukaroboter.basistech.inlineforms.movement.old; Kuka.IsGlobalPoint=False; Kuka.PointName=P130; Kuka.BlendingEnabled=True; Kuka.MoveDataName=CPDATP110; Kuka.VelocityPath=2; Kuka.CurrentCDSetIndex=0; Kuka.MovementParameterFieldEnabled=True; IlfCommand=LIN
;ENDFOLD
$BWDSTART = FALSE
LDAT_ACT=LCPDATP110
FDAT_ACT=FP130
BAS (#CP_PARAMS,2)
SET_CD_PARAMS (0)
LIN  XP130 C_DIS C_DIS
;ENDFOLD
;FOLD LIN P128 CONT Vel= 2 m/s CPDATP108 Tool[2] Base[1]   ;%{PE}
;FOLD Parameters ;%{h}
;Params IlfProvider=kukaroboter.basistech.inlineforms.movement.old; Kuka.IsGlobalPoint=False; Kuka.PointName=P128; Kuka.BlendingEnabled=True; Kuka.MoveDataName=CPDATP108; Kuka.VelocityPath=2; Kuka.CurrentCDSetIndex=0; Kuka.MovementParameterFieldEnabled=True; IlfCommand=LIN
;ENDFOLD
$BWDSTART = FALSE
LDAT_ACT=LCPDATP108
FDAT_ACT=FP128
BAS (#CP_PARAMS,2)
SET_CD_PARAMS (0)
LIN  XP128 C_DIS C_DIS
;ENDFOLD
;FOLD LIN P129 CONT Vel= 2 m/s CPDATP109 Tool[2] Base[1]   ;%{PE}
;FOLD Parameters ;%{h}
;Params IlfProvider=kukaroboter.basistech.inlineforms.movement.old; Kuka.IsGlobalPoint=False; Kuka.PointName=P129; Kuka.BlendingEnabled=True; Kuka.MoveDataName=CPDATP109; Kuka.VelocityPath=2; Kuka.CurrentCDSetIndex=0; Kuka.MovementParameterFieldEnabled=True; IlfCommand=LIN
;ENDFOLD
$BWDSTART = FALSE
LDAT_ACT=LCPDATP109
FDAT_ACT=FP129
BAS (#CP_PARAMS,2)
SET_CD_PARAMS (0)
LIN  XP129 C_DIS C_DIS
;ENDFOLD
;FOLD LIN P134 CONT Vel= 2 m/s CPDATP114 Tool[2] Base[1]   ;%{PE}
;FOLD Parameters ;%{h}
;Params IlfProvider=kukaroboter.basistech.inlineforms.movement.old; Kuka.IsGlobalPoint=False; Kuka.PointName=P134; Kuka.BlendingEnabled=True; Kuka.MoveDataName=CPDATP114; Kuka.VelocityPath=2; Kuka.CurrentCDSetIndex=0; Kuka.MovementParameterFieldEnabled=True; IlfCommand=LIN
;ENDFOLD
$BWDSTART = FALSE
LDAT_ACT=LCPDATP114
FDAT_ACT=FP134
BAS (#CP_PARAMS,2)
SET_CD_PARAMS (0)
LIN  XP134 C_DIS C_DIS
;ENDFOLD
;FOLD LIN P135 CONT Vel= 2 m/s CPDATP115 Tool[2] Base[1]   ;%{PE}
;FOLD Parameters ;%{h}
;Params IlfProvider=kukaroboter.basistech.inlineforms.movement.old; Kuka.IsGlobalPoint=False; Kuka.PointName=P135; Kuka.BlendingEnabled=True; Kuka.MoveDataName=CPDATP115; Kuka.VelocityPath=2; Kuka.CurrentCDSetIndex=0; Kuka.MovementParameterFieldEnabled=True; IlfCommand=LIN
;ENDFOLD
$BWDSTART = FALSE
LDAT_ACT=LCPDATP115
FDAT_ACT=FP135
BAS (#CP_PARAMS,2)
SET_CD_PARAMS (0)
LIN  XP135 C_DIS C_DIS
;ENDFOLD
;FOLD LIN P131 CONT Vel= 2 m/s CPDATP111 Tool[2] Base[1]   ;%{PE}
;FOLD Parameters ;%{h}
;Params IlfProvider=kukaroboter.basistech.inlineforms.movement.old; Kuka.IsGlobalPoint=False; Kuka.PointName=P131; Kuka.BlendingEnabled=True; Kuka.MoveDataName=CPDATP111; Kuka.VelocityPath=2; Kuka.CurrentCDSetIndex=0; Kuka.MovementParameterFieldEnabled=True; IlfCommand=LIN
;ENDFOLD
$BWDSTART = FALSE
LDAT_ACT=LCPDATP111
FDAT_ACT=FP131
BAS (#CP_PARAMS,2)
SET_CD_PARAMS (0)
LIN  XP131 C_DIS C_DIS
;ENDFOLD
;FOLD LIN P132 CONT Vel= 2 m/s CPDATP112 Tool[2] Base[1]   ;%{PE}
;FOLD Parameters ;%{h}
;Params IlfProvider=kukaroboter.basistech.inlineforms.movement.old; Kuka.IsGlobalPoint=False; Kuka.PointName=P132; Kuka.BlendingEnabled=True; Kuka.MoveDataName=CPDATP112; Kuka.VelocityPath=2; Kuka.CurrentCDSetIndex=0; Kuka.MovementParameterFieldEnabled=True; IlfCommand=LIN
;ENDFOLD
$BWDSTART = FALSE
LDAT_ACT=LCPDATP112
FDAT_ACT=FP132
BAS (#CP_PARAMS,2)
SET_CD_PARAMS (0)
LIN  XP132 C_DIS C_DIS
;ENDFOLD
;FOLD LIN P136 CONT Vel= 2 m/s CPDATP116 Tool[2] Base[1]   ;%{PE}
;FOLD Parameters ;%{h}
;Params IlfProvider=kukaroboter.basistech.inlineforms.movement.old; Kuka.IsGlobalPoint=False; Kuka.PointName=P136; Kuka.BlendingEnabled=True; Kuka.MoveDataName=CPDATP116; Kuka.VelocityPath=2; Kuka.CurrentCDSetIndex=0; Kuka.MovementParameterFieldEnabled=True; IlfCommand=LIN
;ENDFOLD
$BWDSTART = FALSE
LDAT_ACT=LCPDATP116
FDAT_ACT=FP136
BAS (#CP_PARAMS,2)
SET_CD_PARAMS (0)
LIN  XP136 C_DIS C_DIS
;ENDFOLD
;FOLD LIN P137 CONT Vel= 2 m/s CPDATP117 Tool[2] Base[1]   ;%{PE}
;FOLD Parameters ;%{h}
;Params IlfProvider=kukaroboter.basistech.inlineforms.movement.old; Kuka.IsGlobalPoint=False; Kuka.PointName=P137; Kuka.BlendingEnabled=True; Kuka.MoveDataName=CPDATP117; Kuka.VelocityPath=2; Kuka.CurrentCDSetIndex=0; Kuka.MovementParameterFieldEnabled=True; IlfCommand=LIN
;ENDFOLD
$BWDSTART = FALSE
LDAT_ACT=LCPDATP117
FDAT_ACT=FP137
BAS (#CP_PARAMS,2)
SET_CD_PARAMS (0)
LIN  XP137 C_DIS C_DIS
;ENDFOLD
;FOLD LIN P133 CONT Vel= 2 m/s CPDATP113 Tool[2] Base[1]   ;%{PE}
;FOLD Parameters ;%{h}
;Params IlfProvider=kukaroboter.basistech.inlineforms.movement.old; Kuka.IsGlobalPoint=False; Kuka.PointName=P133; Kuka.BlendingEnabled=True; Kuka.MoveDataName=CPDATP113; Kuka.VelocityPath=2; Kuka.CurrentCDSetIndex=0; Kuka.MovementParameterFieldEnabled=True; IlfCommand=LIN
;ENDFOLD
$BWDSTART = FALSE
LDAT_ACT=LCPDATP113
FDAT_ACT=FP133
BAS (#CP_PARAMS,2)
SET_CD_PARAMS (0)
LIN  XP133 C_DIS C_DIS
;ENDFOLD
END


DEF Zone03_01()

;FOLD LIN P138 CONT Vel= 2 m/s CPDATP118 Tool[9] Base[1]   ;%{PE}
;FOLD Parameters ;%{h}
;Params IlfProvider=kukaroboter.basistech.inlineforms.movement.old; Kuka.IsGlobalPoint=False; Kuka.PointName=P138; Kuka.BlendingEnabled=True; Kuka.MoveDataName=CPDATP118; Kuka.VelocityPath=2; Kuka.CurrentCDSetIndex=0; Kuka.MovementParameterFieldEnabled=True; IlfCommand=LIN
;ENDFOLD
$BWDSTART = FALSE
LDAT_ACT=LCPDATP118
FDAT_ACT=FP138
BAS (#CP_PARAMS,2)
SET_CD_PARAMS (0)
LIN  XP138 C_DIS C_DIS
;ENDFOLD
;FOLD LIN P139 CONT Vel= 2 m/s CPDATP119 Tool[9] Base[1]   ;%{PE}
;FOLD Parameters ;%{h}
;Params IlfProvider=kukaroboter.basistech.inlineforms.movement.old; Kuka.IsGlobalPoint=False; Kuka.PointName=P139; Kuka.BlendingEnabled=True; Kuka.MoveDataName=CPDATP119; Kuka.VelocityPath=2; Kuka.CurrentCDSetIndex=0; Kuka.MovementParameterFieldEnabled=True; IlfCommand=LIN
;ENDFOLD
$BWDSTART = FALSE
LDAT_ACT=LCPDATP119
FDAT_ACT=FP139
BAS (#CP_PARAMS,2)
SET_CD_PARAMS (0)
LIN  XP139 C_DIS C_DIS
;ENDFOLD
;FOLD LIN P140 CONT Vel= 2 m/s CPDATP120 Tool[1] Base[1]   ;%{PE}
;FOLD Parameters ;%{h}
;Params IlfProvider=kukaroboter.basistech.inlineforms.movement.old; Kuka.IsGlobalPoint=False; Kuka.PointName=P140; Kuka.BlendingEnabled=True; Kuka.MoveDataName=CPDATP120; Kuka.VelocityPath=2; Kuka.CurrentCDSetIndex=0; Kuka.MovementParameterFieldEnabled=True; IlfCommand=LIN
;ENDFOLD
$BWDSTART = FALSE
LDAT_ACT=LCPDATP120
FDAT_ACT=FP140
BAS (#CP_PARAMS,2)
SET_CD_PARAMS (0)
LIN  XP140 C_DIS C_DIS
;ENDFOLD
;FOLD LIN P142 CONT Vel= 2 m/s CPDATP122 Tool[1] Base[1]   ;%{PE}
;FOLD Parameters ;%{h}
;Params IlfProvider=kukaroboter.basistech.inlineforms.movement.old; Kuka.IsGlobalPoint=False; Kuka.PointName=P142; Kuka.BlendingEnabled=True; Kuka.MoveDataName=CPDATP122; Kuka.VelocityPath=2; Kuka.CurrentCDSetIndex=0; Kuka.MovementParameterFieldEnabled=True; IlfCommand=LIN
;ENDFOLD
$BWDSTART = FALSE
LDAT_ACT=LCPDATP122
FDAT_ACT=FP142
BAS (#CP_PARAMS,2)
SET_CD_PARAMS (0)
LIN  XP142 C_DIS C_DIS
;ENDFOLD
;FOLD LIN P156 CONT Vel= 2 m/s CPDATP136 Tool[9] Base[1]   ;%{PE}
;FOLD Parameters ;%{h}
;Params IlfProvider=kukaroboter.basistech.inlineforms.movement.old; Kuka.IsGlobalPoint=False; Kuka.PointName=P156; Kuka.BlendingEnabled=True; Kuka.MoveDataName=CPDATP136; Kuka.VelocityPath=2; Kuka.CurrentCDSetIndex=0; Kuka.MovementParameterFieldEnabled=True; IlfCommand=LIN
;ENDFOLD
$BWDSTART = FALSE
LDAT_ACT=LCPDATP136
FDAT_ACT=FP156
BAS (#CP_PARAMS,2)
SET_CD_PARAMS (0)
LIN  XP156 C_DIS C_DIS
;ENDFOLD
;FOLD LIN P171 CONT Vel= 2 m/s CPDATP151 Tool[9] Base[1]   ;%{PE}
;FOLD Parameters ;%{h}
;Params IlfProvider=kukaroboter.basistech.inlineforms.movement.old; Kuka.IsGlobalPoint=False; Kuka.PointName=P171; Kuka.BlendingEnabled=True; Kuka.MoveDataName=CPDATP151; Kuka.VelocityPath=2; Kuka.CurrentCDSetIndex=0; Kuka.MovementParameterFieldEnabled=True; IlfCommand=LIN
;ENDFOLD
$BWDSTART = FALSE
LDAT_ACT=LCPDATP151
FDAT_ACT=FP171
BAS (#CP_PARAMS,2)
SET_CD_PARAMS (0)
LIN  XP171 C_DIS C_DIS
;ENDFOLD
;FOLD LIN P172 CONT Vel= 2 m/s CPDATP152 Tool[9] Base[1]   ;%{PE}
;FOLD Parameters ;%{h}
;Params IlfProvider=kukaroboter.basistech.inlineforms.movement.old; Kuka.IsGlobalPoint=False; Kuka.PointName=P172; Kuka.BlendingEnabled=True; Kuka.MoveDataName=CPDATP152; Kuka.VelocityPath=2; Kuka.CurrentCDSetIndex=0; Kuka.MovementParameterFieldEnabled=True; IlfCommand=LIN
;ENDFOLD
$BWDSTART = FALSE
LDAT_ACT=LCPDATP152
FDAT_ACT=FP172
BAS (#CP_PARAMS,2)
SET_CD_PARAMS (0)
LIN  XP172 C_DIS C_DIS
;ENDFOLD
;FOLD LIN P157 CONT Vel= 2 m/s CPDATP137 Tool[9] Base[1]   ;%{PE}
;FOLD Parameters ;%{h}
;Params IlfProvider=kukaroboter.basistech.inlineforms.movement.old; Kuka.IsGlobalPoint=False; Kuka.PointName=P157; Kuka.BlendingEnabled=True; Kuka.MoveDataName=CPDATP137; Kuka.VelocityPath=2; Kuka.CurrentCDSetIndex=0; Kuka.MovementParameterFieldEnabled=True; IlfCommand=LIN
;ENDFOLD
$BWDSTART = FALSE
LDAT_ACT=LCPDATP137
FDAT_ACT=FP157
BAS (#CP_PARAMS,2)
SET_CD_PARAMS (0)
LIN  XP157 C_DIS C_DIS
;ENDFOLD
;FOLD LIN P143 CONT Vel= 2 m/s CPDATP123 Tool[1] Base[1]   ;%{PE}
;FOLD Parameters ;%{h}
;Params IlfProvider=kukaroboter.basistech.inlineforms.movement.old; Kuka.IsGlobalPoint=False; Kuka.PointName=P143; Kuka.BlendingEnabled=True; Kuka.MoveDataName=CPDATP123; Kuka.VelocityPath=2; Kuka.CurrentCDSetIndex=0; Kuka.MovementParameterFieldEnabled=True; IlfCommand=LIN
;ENDFOLD
$BWDSTART = FALSE
LDAT_ACT=LCPDATP123
FDAT_ACT=FP143
BAS (#CP_PARAMS,2)
SET_CD_PARAMS (0)
LIN  XP143 C_DIS C_DIS
;ENDFOLD
;FOLD LIN P144 CONT Vel= 2 m/s CPDATP124 Tool[1] Base[1]   ;%{PE}
;FOLD Parameters ;%{h}
;Params IlfProvider=kukaroboter.basistech.inlineforms.movement.old; Kuka.IsGlobalPoint=False; Kuka.PointName=P144; Kuka.BlendingEnabled=True; Kuka.MoveDataName=CPDATP124; Kuka.VelocityPath=2; Kuka.CurrentCDSetIndex=0; Kuka.MovementParameterFieldEnabled=True; IlfCommand=LIN
;ENDFOLD
$BWDSTART = FALSE
LDAT_ACT=LCPDATP124
FDAT_ACT=FP144
BAS (#CP_PARAMS,2)
SET_CD_PARAMS (0)
LIN  XP144 C_DIS C_DIS
;ENDFOLD
;FOLD LIN P158 CONT Vel= 2 m/s CPDATP138 Tool[9] Base[1]   ;%{PE}
;FOLD Parameters ;%{h}
;Params IlfProvider=kukaroboter.basistech.inlineforms.movement.old; Kuka.IsGlobalPoint=False; Kuka.PointName=P158; Kuka.BlendingEnabled=True; Kuka.MoveDataName=CPDATP138; Kuka.VelocityPath=2; Kuka.CurrentCDSetIndex=0; Kuka.MovementParameterFieldEnabled=True; IlfCommand=LIN
;ENDFOLD
$BWDSTART = FALSE
LDAT_ACT=LCPDATP138
FDAT_ACT=FP158
BAS (#CP_PARAMS,2)
SET_CD_PARAMS (0)
LIN  XP158 C_DIS C_DIS
;ENDFOLD
;FOLD LIN P173 CONT Vel= 2 m/s CPDATP153 Tool[9] Base[1]   ;%{PE}
;FOLD Parameters ;%{h}
;Params IlfProvider=kukaroboter.basistech.inlineforms.movement.old; Kuka.IsGlobalPoint=False; Kuka.PointName=P173; Kuka.BlendingEnabled=True; Kuka.MoveDataName=CPDATP153; Kuka.VelocityPath=2; Kuka.CurrentCDSetIndex=0; Kuka.MovementParameterFieldEnabled=True; IlfCommand=LIN
;ENDFOLD
$BWDSTART = FALSE
LDAT_ACT=LCPDATP153
FDAT_ACT=FP173
BAS (#CP_PARAMS,2)
SET_CD_PARAMS (0)
LIN  XP173 C_DIS C_DIS
;ENDFOLD
;FOLD LIN P174 CONT Vel= 2 m/s CPDATP154 Tool[9] Base[1]   ;%{PE}
;FOLD Parameters ;%{h}
;Params IlfProvider=kukaroboter.basistech.inlineforms.movement.old; Kuka.IsGlobalPoint=False; Kuka.PointName=P174; Kuka.BlendingEnabled=True; Kuka.MoveDataName=CPDATP154; Kuka.VelocityPath=2; Kuka.CurrentCDSetIndex=0; Kuka.MovementParameterFieldEnabled=True; IlfCommand=LIN
;ENDFOLD
$BWDSTART = FALSE
LDAT_ACT=LCPDATP154
FDAT_ACT=FP174
BAS (#CP_PARAMS,2)
SET_CD_PARAMS (0)
LIN  XP174 C_DIS C_DIS
;ENDFOLD
;FOLD LIN P159 CONT Vel= 2 m/s CPDATP139 Tool[9] Base[1]   ;%{PE}
;FOLD Parameters ;%{h}
;Params IlfProvider=kukaroboter.basistech.inlineforms.movement.old; Kuka.IsGlobalPoint=False; Kuka.PointName=P159; Kuka.BlendingEnabled=True; Kuka.MoveDataName=CPDATP139; Kuka.VelocityPath=2; Kuka.CurrentCDSetIndex=0; Kuka.MovementParameterFieldEnabled=True; IlfCommand=LIN
;ENDFOLD
$BWDSTART = FALSE
LDAT_ACT=LCPDATP139
FDAT_ACT=FP159
BAS (#CP_PARAMS,2)
SET_CD_PARAMS (0)
LIN  XP159 C_DIS C_DIS
;ENDFOLD
;FOLD LIN P145 CONT Vel= 2 m/s CPDATP125 Tool[1] Base[1]   ;%{PE}
;FOLD Parameters ;%{h}
;Params IlfProvider=kukaroboter.basistech.inlineforms.movement.old; Kuka.IsGlobalPoint=False; Kuka.PointName=P145; Kuka.BlendingEnabled=True; Kuka.MoveDataName=CPDATP125; Kuka.VelocityPath=2; Kuka.CurrentCDSetIndex=0; Kuka.MovementParameterFieldEnabled=True; IlfCommand=LIN
;ENDFOLD
$BWDSTART = FALSE
LDAT_ACT=LCPDATP125
FDAT_ACT=FP145
BAS (#CP_PARAMS,2)
SET_CD_PARAMS (0)
LIN  XP145 C_DIS C_DIS
;ENDFOLD
;FOLD LIN P146 CONT Vel= 2 m/s CPDATP126 Tool[1] Base[1]   ;%{PE}
;FOLD Parameters ;%{h}
;Params IlfProvider=kukaroboter.basistech.inlineforms.movement.old; Kuka.IsGlobalPoint=False; Kuka.PointName=P146; Kuka.BlendingEnabled=True; Kuka.MoveDataName=CPDATP126; Kuka.VelocityPath=2; Kuka.CurrentCDSetIndex=0; Kuka.MovementParameterFieldEnabled=True; IlfCommand=LIN
;ENDFOLD
$BWDSTART = FALSE
LDAT_ACT=LCPDATP126
FDAT_ACT=FP146
BAS (#CP_PARAMS,2)
SET_CD_PARAMS (0)
LIN  XP146 C_DIS C_DIS
;ENDFOLD
;FOLD LIN P160 CONT Vel= 2 m/s CPDATP140 Tool[9] Base[1]   ;%{PE}
;FOLD Parameters ;%{h}
;Params IlfProvider=kukaroboter.basistech.inlineforms.movement.old; Kuka.IsGlobalPoint=False; Kuka.PointName=P160; Kuka.BlendingEnabled=True; Kuka.MoveDataName=CPDATP140; Kuka.VelocityPath=2; Kuka.CurrentCDSetIndex=0; Kuka.MovementParameterFieldEnabled=True; IlfCommand=LIN
;ENDFOLD
$BWDSTART = FALSE
LDAT_ACT=LCPDATP140
FDAT_ACT=FP160
BAS (#CP_PARAMS,2)
SET_CD_PARAMS (0)
LIN  XP160 C_DIS C_DIS
;ENDFOLD
;FOLD LIN P175 CONT Vel= 2 m/s CPDATP155 Tool[9] Base[1]   ;%{PE}
;FOLD Parameters ;%{h}
;Params IlfProvider=kukaroboter.basistech.inlineforms.movement.old; Kuka.IsGlobalPoint=False; Kuka.PointName=P175; Kuka.BlendingEnabled=True; Kuka.MoveDataName=CPDATP155; Kuka.VelocityPath=2; Kuka.CurrentCDSetIndex=0; Kuka.MovementParameterFieldEnabled=True; IlfCommand=LIN
;ENDFOLD
$BWDSTART = FALSE
LDAT_ACT=LCPDATP155
FDAT_ACT=FP175
BAS (#CP_PARAMS,2)
SET_CD_PARAMS (0)
LIN  XP175 C_DIS C_DIS
;ENDFOLD
;FOLD LIN P176 CONT Vel= 2 m/s CPDATP156 Tool[9] Base[1]   ;%{PE}
;FOLD Parameters ;%{h}
;Params IlfProvider=kukaroboter.basistech.inlineforms.movement.old; Kuka.IsGlobalPoint=False; Kuka.PointName=P176; Kuka.BlendingEnabled=True; Kuka.MoveDataName=CPDATP156; Kuka.VelocityPath=2; Kuka.CurrentCDSetIndex=0; Kuka.MovementParameterFieldEnabled=True; IlfCommand=LIN
;ENDFOLD
$BWDSTART = FALSE
LDAT_ACT=LCPDATP156
FDAT_ACT=FP176
BAS (#CP_PARAMS,2)
SET_CD_PARAMS (0)
LIN  XP176 C_DIS C_DIS
;ENDFOLD
;FOLD LIN P161 CONT Vel= 2 m/s CPDATP141 Tool[9] Base[1]   ;%{PE}
;FOLD Parameters ;%{h}
;Params IlfProvider=kukaroboter.basistech.inlineforms.movement.old; Kuka.IsGlobalPoint=False; Kuka.PointName=P161; Kuka.BlendingEnabled=True; Kuka.MoveDataName=CPDATP141; Kuka.VelocityPath=2; Kuka.CurrentCDSetIndex=0; Kuka.MovementParameterFieldEnabled=True; IlfCommand=LIN
;ENDFOLD
$BWDSTART = FALSE
LDAT_ACT=LCPDATP141
FDAT_ACT=FP161
BAS (#CP_PARAMS,2)
SET_CD_PARAMS (0)
LIN  XP161 C_DIS C_DIS
;ENDFOLD
;FOLD LIN P147 CONT Vel= 2 m/s CPDATP127 Tool[1] Base[1]   ;%{PE}
;FOLD Parameters ;%{h}
;Params IlfProvider=kukaroboter.basistech.inlineforms.movement.old; Kuka.IsGlobalPoint=False; Kuka.PointName=P147; Kuka.BlendingEnabled=True; Kuka.MoveDataName=CPDATP127; Kuka.VelocityPath=2; Kuka.CurrentCDSetIndex=0; Kuka.MovementParameterFieldEnabled=True; IlfCommand=LIN
;ENDFOLD
$BWDSTART = FALSE
LDAT_ACT=LCPDATP127
FDAT_ACT=FP147
BAS (#CP_PARAMS,2)
SET_CD_PARAMS (0)
LIN  XP147 C_DIS C_DIS
;ENDFOLD
;FOLD LIN P148 CONT Vel= 2 m/s CPDATP128 Tool[1] Base[1]   ;%{PE}
;FOLD Parameters ;%{h}
;Params IlfProvider=kukaroboter.basistech.inlineforms.movement.old; Kuka.IsGlobalPoint=False; Kuka.PointName=P148; Kuka.BlendingEnabled=True; Kuka.MoveDataName=CPDATP128; Kuka.VelocityPath=2; Kuka.CurrentCDSetIndex=0; Kuka.MovementParameterFieldEnabled=True; IlfCommand=LIN
;ENDFOLD
$BWDSTART = FALSE
LDAT_ACT=LCPDATP128
FDAT_ACT=FP148
BAS (#CP_PARAMS,2)
SET_CD_PARAMS (0)
LIN  XP148 C_DIS C_DIS
;ENDFOLD
;FOLD LIN P162 CONT Vel= 2 m/s CPDATP142 Tool[9] Base[1]   ;%{PE}
;FOLD Parameters ;%{h}
;Params IlfProvider=kukaroboter.basistech.inlineforms.movement.old; Kuka.IsGlobalPoint=False; Kuka.PointName=P162; Kuka.BlendingEnabled=True; Kuka.MoveDataName=CPDATP142; Kuka.VelocityPath=2; Kuka.CurrentCDSetIndex=0; Kuka.MovementParameterFieldEnabled=True; IlfCommand=LIN
;ENDFOLD
$BWDSTART = FALSE
LDAT_ACT=LCPDATP142
FDAT_ACT=FP162
BAS (#CP_PARAMS,2)
SET_CD_PARAMS (0)
LIN  XP162 C_DIS C_DIS
;ENDFOLD
;FOLD LIN P177 CONT Vel= 2 m/s CPDATP157 Tool[9] Base[1]   ;%{PE}
;FOLD Parameters ;%{h}
